!!!!SEGMENT: pl-stab--8a--001-006_dankowski-adalbert--requiem-benedictus.krn
!!!cenid: 18xx:3480
!!!COM: Dankowski, Adalbert
!!!COM-rismID: pe30000793
!!!CDT: ~1760-~1836
!!!CNT: Polish
!!!OPR: Requiem
!!!OTL: Benedictus
!!!OMV: 006
!!!PDT:
!!!AGN:
!!!SMS-siglum: PL-STAb
!!!SMS-shelfmark: 8a
!!!SMS-shelfwork: 001-006 M
!!!SMS-variant:
!!!SMS-altvar:
!!!NIFC-rismSourceID: 301050561
!!!NIFC-islandoraID: pl-stab:1903
!!!URL-pdf-islandora: https://repozytorium.nifc.pl/islandora/object/pl-stab%3A1903/datastream/PDF/view
!!!URL-scan: https://polish.musicsources.pl/pl/lokalizacje/galeria/rekopisy/4640 @EN{Scan on Polish Music Sources Website} @PL{Skany w portalu Dziedzictwo Muzyki Polskiej w otwartym dostępie}
!!!ONB-nifc: UWAGA: części Requiem: 1. Requiem aeternam, 2. Kyrie, 3. Dies irae, 4. Domine Jesu Christe, 5. Sanctus, 6. Benedictus, 7. Agnus Dei, 8. Lux aeterna
!!!OMD: Andante
!!!AIN: 1 alto 1 bass 2 clars 2 cor 1 organ 1 soprn 1 tenor 2 violn
!!!key: A-
**kern	**fba	**dynam	**kern	**dynam	**kern	**dynam	**kern	**kern	**kern	**text	**kern	**text	**kern	**kern	**kern	**dynam	**kern	**dynam
*	*	*	*group4	*	*group4	*	*group3	*group3	*group3	*	*group3	*	*group2	*group2	*group1	*	*group1	*
*part11	*part11	*part11	*part10	*part10	*part9	*part9	*part8	*part7	*part6	*part6	*part5	*part5	*part4	*part3	*part2	*part2	*part1	*part1
*staff11	*staff11	*	*staff10	*	*staff9	*	*staff8	*staff7	*staff6	*staff6	*staff5	*staff5	*staff4	*staff3	*staff2	*	*staff1	*
*I"Organo	*	*	*I"Violino Secundo	*	*I"Violino Primo	*	*I"Baſso	*I"Tenor	*I"Alto	*	*I"Canto	*	*I"Cornu Secondo In Dis	*I"Cornu Primo In Dis	*I"Clarinetto Secundo in B	*	*I"Clarinetto Primo in B	*
*	*	*	*mI"Violino II	*	*mI"Violino I	*	*mI"Basso	*mI"Tenore	*	*	*mI"Soprano	*	*mI"Corno II in Eb	*mI"Corno I in Eb	*mI"Clarinetto II in Bb	*	*mI"Clarinetto I in Bb	*
*I'org	*	*	*I'vl 2	*	*I'vl 1	*	*I'B	*I'T	*I'A	*	*I'S	*	*I'cor 2 in Eb	*I'cor 1 in Eb	*I'cl 2 in Bb	*	*I'cl 1 in Bb	*
*Iorgan	*	*	*Ivioln	*	*Ivioln	*	*Ibass	*Itenor	*Ialto	*	*Isoprn	*	*Icor	*Icor	*Iclars	*	*Iclars	*
*ICklav	*	*	*ICstr	*	*ICstr	*	*ICvox	*ICvox	*ICvox	*	*ICvox	*	*ICbras	*ICbras	*ICww	*	*ICww	*
*IGcont	*	*	*	*	*	*	*IGcoro	*IGcoro	*IGcoro	*	*IGcoro	*	*	*	*	*	*	*
*	*	*	*	*	*	*	*tacet	*tacet	*	*	*	*	*tacet	*tacet	*	*	*	*
*clefF4	*	*	*clefG2	*	*clefG2	*	*clefF4	*clefC4	*clefC3	*	*clefC1	*	*clefG2	*clefG2	*clefG2	*	*clefG2	*
*	*	*	*	*	*	*	*	*mclefGv2	*mclefG2	*	*mclefG2	*	*	*	*	*	*	*
*	*	*	*	*	*	*	*	*	*	*	*	*	*	*	*ITrd1c2	*	*ITrd1c2	*
*k[b-e-a-d-]	*	*	*k[b-e-a-d-]	*	*k[b-e-a-d-]	*	*k[b-e-a-d-]	*k[b-e-a-d-]	*k[b-e-a-d-]	*	*k[b-e-a-d-]	*	*	*	*k[b-e-a-d-]	*	*k[b-e-a-d-]	*
*A-:	*	*	*A-:	*	*A-:	*	*A-:	*A-:	*A-:	*	*A-:	*	*A-:	*A-:	*A-:	*	*A-:	*
*M3/4	*	*	*M3/4	*	*M3/4	*	*M3/4	*M3/4	*M3/4	*	*M3/4	*	*M3/4	*M3/4	*M3/4	*	*M3/4	*
=1	=1	=1	=1	=1	=1	=1	=1	=1	=1	=1	=1	=1	=1	=1	=1	=1	=1	=1
!LO:MO:mod=*tremolo	!	!	!	!	!	!	!	!	!	!	!	!	!	!	!	!	!	!
*null	*	*	*	*	*	*	*	*	*	*	*	*	*	*	*	*	*	*
!LO:TX:a:i:t=Solo:mod=	!	!	!LO:TX:a:i:t=Solo:mod=	!	!LO:TX:a:i:t=Solo:mod=	!	!	!	!	!	!LO:TX:a:i:t=andante:mod=	!	!	!	!	!	!LO:TX:a:t=Solo:mod=	!
!LO:TX:a:t=andante:mod=	!	!	!LO:TX:a:i:t=Andante:mod=	!	!LO:TX:a:i:t=andante:mod=	!	!LO:TX:a:t=Benedictus Tacet:mod=	!LO:TX:a:t=Bene\ndictus\nTacet:mod=	!LO:TX:a:i:t=andante:mod=	!	!	!	!LO:TX:a:t=Benedictus Tacet:mod=	!LO:TX:a:t=Benedictus Tacet:mod=	!LO:TX:a:t=andante:mod=	!	!LO:TX:a:t=andante:mod=	!
8A-\L	.	.	4.a-/	.	4.cc\	.	2.ryy	2.ryy	0.r	.	0.r	.	2.ryy	2.ryy	1.r	.	1.r	.
8A-\	.	.	.	.	.	.	.	.	.	.	.	.	.	.	.	.	.	.
8A-\	.	.	.	.	.	.	.	.	.	.	.	.	.	.	.	.	.	.
8A-\	.	.	16g/LL	.	16b-\LL	.	.	.	.	.	.	.	.	.	.	.	.	.
.	.	.	16a-/JJ	.	16cc\JJ	.	.	.	.	.	.	.	.	.	.	.	.	.
8A-\	4_ 2_	.	8b-/L	.	8dd-\L	.	.	.	.	.	.	.	.	.	.	.	.	.
8A-\J	x	.	8g/J	.	8b-\J	.	.	.	.	.	.	.	.	.	.	.	.	.
=2	=2	=2	=2	=2	=2	=2	=2	=2	=2	=2	=2	=2	=2	=2	=2	=2	=2	=2
!	!	!	!LO:SIC:s=(8a-L	!	!	!	!	!	!	!	!	!	!	!	!	!	!	!
8A-\L	3	.	8a-/L	.	(>8cc\L	.	2.ryy	2.ryy	.	.	.	.	2.ryy	2.ryy	.	.	.	.
!	!	!	!LO:SIC:s=8ccJ)	!	!	!	!	!	!	!	!	!	!	!	!	!	!	!
8A-\	_	.	8cc/J	.	8ee-\J)	.	.	.	.	.	.	.	.	.	.	.	.	.
!	!	!	!LO:SIC:s=(4.cc	!	!	!	!	!	!	!	!	!	!	!	!	!	!	!
8A-\	.	.	4.cc/	.	(>4.ee-\	.	.	.	.	.	.	.	.	.	.	.	.	.
8A-\	.	.	.	.	.	.	.	.	.	.	.	.	.	.	.	.	.	.
8A-\	x	.	.	.	.	.	.	.	.	.	.	.	.	.	.	.	.	.
!	!	!	!LO:SIC:s=8b-)	!	!	!	!	!	!	!	!	!	!	!	!	!	!	!
8A-\J	4 2	.	8b-/	.	8dd-\)	.	.	.	.	.	.	.	.	.	.	.	.	.
=3	=3	=3	=3	=3	=3	=3	=3	=3	=3	=3	=3	=3	=3	=3	=3	=3	=3	=3
8A-\L	3	.	8b-/L	.	8dd-\L	.	2.ryy	2.ryy	.	.	.	.	2.ryy	2.ryy	2.r	.	2.r	.
8A-\	_	.	8a-/J	.	8cc\J	.	.	.	.	.	.	.	.	.	.	.	.	.
8A-\	.	.	4.a-/	.	4.cc\	.	.	.	.	.	.	.	.	.	.	.	.	.
8A-\	.	.	.	.	.	.	.	.	.	.	.	.	.	.	.	.	.	.
8A-\	x	.	.	.	.	.	.	.	.	.	.	.	.	.	.	.	.	.
8A-\J	4 2	.	16f/LL	.	16dd-\LL	.	.	.	.	.	.	.	.	.	.	.	.	.
.	.	.	16d-/JJ	.	16b-\JJ	.	.	.	.	.	.	.	.	.	.	.	.	.
!LO:MO:mod=*Xtremolo	!	!	!	!	!	!	!	!	!	!	!	!	!	!	!	!	!	!
*null	*	*	*	*	*	*	*	*	*	*	*	*	*	*	*	*	*	*
=4	=4	=4	=4	=4	=4	=4	=4	=4	=4	=4	=4	=4	=4	=4	=4	=4	=4	=4
4A-\	3	.	8d-/L	.	8b-/L	.	2.ryy	2.ryy	.	.	.	.	2.ryy	2.ryy	4r	.	4r	.
.	.	.	8c/J	.	8a-/J	.	.	.	.	.	.	.	.	.	.	.	.	.
!	!	!	!	!	!	!	!	!	!	!	!	!	!	!	!LO:TX:a:t=Solo:mod=	!	!	!
4AA-/	_	.	4c/	.	4a-/	.	.	.	.	.	.	.	.	.	8r	.	8r	.
.	.	.	.	.	.	.	.	.	.	.	.	.	.	.	(16a-\LL	.	(16cc\LL	.
.	.	.	.	.	.	.	.	.	.	.	.	.	.	.	16b-\JJ)	.	16dd-\JJ)	.
8r	x	.	8r	.	8r	.	.	.	.	.	.	.	.	.	8a-|>\L	.	8cc|>\L	.
!	!	!	!	!LO:DY:a:t=p.:mod=%s	!	!LO:DY:a:t=p.:mod=%s	!	!	!	!	!	!	!	!	!	!	!	!
8A-\	.	.	8A-/	p	8c/	p	.	.	.	.	.	.	.	.	8a-|>\J	.	8cc|>\J	.
=5	=5	=5	=5	=5	=5	=5	=5	=5	=5	=5	=5	=5	=5	=5	=5	=5	=5	=5
4E-\	.	.	(<8.G/L	.	(<8.B-/L	.	2.ryy	2.ryy	0.r	.	0.r	.	2.ryy	2.ryy	(8.g\L	.	(8.b-\L	.
.	.	.	16A-/Jk)	.	16c/Jk)	.	.	.	.	.	.	.	.	.	16a-\Jk)	.	16cc\Jk)	.
4E-\	.	.	4B-|</	.	4d-|</	.	.	.	.	.	.	.	.	.	8b-|>\L	.	8dd-|\L	.
.	.	.	.	.	.	.	.	.	.	.	.	.	.	.	8b-|>\	.	8dd-|\	.
8r	.	.	8r	.	8r	.	.	.	.	.	.	.	.	.	8b-|>\	.	8dd-|\	.
8E-\	.	.	8B-|</	.	8d-/	.	.	.	.	.	.	.	.	.	8b-|>\J	.	8dd-|\J	.
=6	=6	=6	=6	=6	=6	=6	=6	=6	=6	=6	=6	=6	=6	=6	=6	=6	=6	=6
4A-\	.	.	(<8.A-/L	.	(8.c/L	.	2.ryy	2.ryy	.	.	.	.	2.ryy	2.ryy	(8.a-\L	.	(8.cc\L	.
.	.	.	16B-/Jk)	.	16d-/Jk)	.	.	.	.	.	.	.	.	.	16b-\Jk)	.	16dd-\Jk)	.
4AA-/	.	.	4c|</	.	4e-|</	.	.	.	.	.	.	.	.	.	8cc|>\L	.	8ee-|\L	.
.	.	.	.	.	.	.	.	.	.	.	.	.	.	.	8cc|>\	.	8ee-|\	.
!	!	!	!	!	!LO:LB:g=original	!	!	!	!	!	!	!	!	!	!	!	!	!
8r	.	.	8r	.	8r	.	.	.	.	.	.	.	.	.	8cc|>\	.	8ee-|\	.
8A-\	.	.	8c/	.	8e-/	.	.	.	.	.	.	.	.	.	8cc|>\J	.	8ee-|\J	.
!	!	!	!LO:LB:g=original	!	!	!	!	!	!	!	!	!	!	!	!	!	!	!
=7	=7	=7	=7	=7	=7	=7	=7	=7	=7	=7	=7	=7	=7	=7	=7	=7	=7	=7
4D-\	6_	.	(8d-/L	.	(8f/L	.	2.ryy	2.ryy	.	.	.	.	2.ryy	2.ryy	(8dd-\L	.	(8ff\L	.
.	.	.	8c/)	.	8e-/)	.	.	.	.	.	.	.	.	.	8cc\)	.	8ee-\)	.
4D-\	.	.	(8c/	.	(8e-/	.	.	.	.	.	.	.	.	.	(8cc\	.	(8ee-\	.
.	.	.	8B-/)	.	8d-/)	.	.	.	.	.	.	.	.	.	8b-\)	.	8dd-\)	.
4Dn\	5	.	(8B-/	.	(8d-/	.	.	.	.	.	.	.	.	.	(8b-\	.	(8dd-\	.
.	.	.	8A-/J)	.	8c/J)	.	.	.	.	.	.	.	.	.	8a-\J)	.	8cc\J)	.
!LO:LB:g=original	!	!	!	!	!	!	!	!	!	!	!	!	!	!	!LO:LB:g=original	!	!LO:LB:g=original	!
=8	=8	=8	=8	=8	=8	=8	=8	=8	=8	=8	=8	=8	=8	=8	=8	=8	=8	=8
!	!	!	!	!	!	!	!	!	!	!	!	!	!	!	!	!	!LO:SIC:s=(8.ccL	!
4E-\	4	.	8.A-/L	.	8.c/L	.	2.ryy	2.ryy	.	.	.	.	2.ryy	2.ryy	(8.a-\L	.	8.cc\L	.
.	.	.	32G/LL	.	32B-/LL	.	.	.	.	.	.	.	.	.	32b-\LL	.	32dd-\LL	.
!	!	!	!	!	!	!	!	!	!	!	!	!	!	!	!	!	!LO:SIC:s=32ccJJJ)	!
.	.	.	32A-/JJJ	.	32c/JJJ	.	.	.	.	.	.	.	.	.	32a-\JJJ)	.	32cc\JJJ	.
!	!	!	!	!LO:DY:a:t=for:mod=%s	!	!	!	!	!	!	!	!	!	!	!	!	!LO:SIC:s=8b-|L	!
4EE-/	3	.	8G/L	f	4B-/	.	.	.	.	.	.	.	.	.	8g|>\L	.	8b-\L	.
.	.	.	8g|</	.	.	.	.	.	.	.	.	.	.	.	(16b-\L	.	(16dd-\L	.
.	.	.	.	.	.	.	.	.	.	.	.	.	.	.	16cc\JJ)	.	16ee-\JJ)	.
4r	.	.	8e-|</	.	8r	.	.	.	.	.	.	.	.	.	8b-|>\L	.	8dd-|>\L	.
!	!	!	!	!	!	!LO:MO:mod=!LO&colon;DY&colon;ed=brack	!	!	!	!	!	!	!	!	!	!	!	!
!	!	!	!	!	!	!null	!	!	!	!	!	!	!	!	!	!	!	!
!	!	!	!	!	!LO:TX:a:i:t=Solo	!LO:MO:null:mod=f	!	!	!	!	!	!	!	!	!	!	!	!
.	.	.	8g|</J	.	8b-\	.	.	.	.	.	.	.	.	.	8b-|>\J	.	8dd-|>\J	.
=9	=9	=9	=9	=9	=9	=9	=9	=9	=9	=9	=9	=9	=9	=9	=9	=9	=9	=9
.	.	.	.	.	16qqdd-/	.	.	.	.	.	.	.	.	.	.	.	.	.
!	!	!	!	!	!	!	!	!	!	!	!	!	!	!	!LO:SIC:s=(8b-L	!	!	!
4r	.	.	8e-|</L	.	8cc\L	.	2.ryy	2.ryy	0.r	.	0.r	.	2.ryy	2.ryy	8b-\L	.	(8dd-\L	.
!	!	!	!	!	!	!	!	!	!	!	!	!	!	!	!LO:SIC:s=8a-J)	!	!	!
.	.	.	8a-|</	.	16b-\L	.	.	.	.	.	.	.	.	.	8a-\J	.	8cc\J)	.
.	.	.	.	.	16cc\JJ	.	.	.	.	.	.	.	.	.	.	.	.	.
!	!	!LO:DY:a:t=p.:mod=%s	!	!	!	!	!	!	!	!	!	!	!	!	!	!	!	!
4A-\	.	p	8c|</	.	(4.ee-\	.	.	.	.	.	.	.	.	.	4a-\	.	4cc|>\	.
.	.	.	8a-|</	.	.	.	.	.	.	.	.	.	.	.	.	.	.	.
4AA-/	.	.	8e-|</	.	.	.	.	.	.	.	.	.	.	.	4r	.	4r	.
.	.	.	8a-|</J	.	16dd-\LL	.	.	.	.	.	.	.	.	.	.	.	.	.
.	.	.	.	.	16cc\JJ)	.	.	.	.	.	.	.	.	.	.	.	.	.
=10	=10	=10	=10	=10	=10	=10	=10	=10	=10	=10	=10	=10	=10	=10	=10	=10	=10	=10
4r	.	.	8e-|</L	.	16ee-\LL	.	2.ryy	2.ryy	.	.	.	.	2.ryy	2.ryy	8g/L	.	8b-\L	.
.	.	.	.	.	(16dd-\	.	.	.	.	.	.	.	.	.	.	.	.	.
.	.	.	8g|</	.	16cc\	.	.	.	.	.	.	.	.	.	16f/L	.	16a-\L	.
.	.	.	.	.	16dd-\JJ)	.	.	.	.	.	.	.	.	.	16g/JJ	.	16b-\JJ	.
4E-\	.	.	8B-|</	.	4b-\	.	.	.	.	.	.	.	.	.	4.b-\	.	4.dd-\	.
.	.	.	8g|</	.	.	.	.	.	.	.	.	.	.	.	.	.	.	.
4E-\	.	.	8e-|</	.	8r	.	.	.	.	.	.	.	.	.	.	.	.	.
.	.	.	8g|</J	.	8b-\	.	.	.	.	.	.	.	.	.	16cc\LL	.	16ee-\LL	.
.	.	.	.	.	.	.	.	.	.	.	.	.	.	.	16b-\JJ	.	16dd-\JJ	.
=11	=11	=11	=11	=11	=11	=11	=11	=11	=11	=11	=11	=11	=11	=11	=11	=11	=11	=11
.	.	.	.	.	16qqdd-/	.	.	.	.	.	.	.	.	.	.	.	.	.
4r	.	.	8e-|</L	.	8cc\L	.	2.ryy	2.ryy	.	.	.	.	2.ryy	2.ryy	8b-\L	.	8dd-\L	.
.	.	.	8a-|</	.	16b-\L	.	.	.	.	.	.	.	.	.	8a-\J	.	8cc\J	.
.	.	.	.	.	16cc\JJ	.	.	.	.	.	.	.	.	.	.	.	.	.
4A-\	.	.	8c|</	.	(4.ee-\	.	.	.	.	.	.	.	.	.	4a-\	.	4cc\	.
.	.	.	8a-|</	.	.	.	.	.	.	.	.	.	.	.	.	.	.	.
4AA-/	.	.	8e-|</	.	.	.	.	.	.	.	.	.	.	.	4r	.	4r	.
.	.	.	8a-|</J	.	16dd-\LL	.	.	.	.	.	.	.	.	.	.	.	.	.
.	.	.	.	.	16cc\JJ)	.	.	.	.	.	.	.	.	.	.	.	.	.
=12	=12	=12	=12	=12	=12	=12	=12	=12	=12	=12	=12	=12	=12	=12	=12	=12	=12	=12
4r	.	.	8e-|</L	.	16ee-\LL	.	2.ryy	2.ryy	.	.	.	.	2.ryy	2.ryy	8g/L	.	8b-\L	.
.	.	.	.	.	16dd-\	.	.	.	.	.	.	.	.	.	.	.	.	.
.	.	.	8g|</	.	16cc\	.	.	.	.	.	.	.	.	.	16f/L	.	16a-\L	.
.	.	.	.	.	16dd-\JJ	.	.	.	.	.	.	.	.	.	16g/JJ	.	16b-\JJ	.
4E-\	.	.	8B-|</	.	4b-\	.	.	.	.	.	.	.	.	.	4.b-\	.	4.dd-\	.
.	.	.	8g|</	.	.	.	.	.	.	.	.	.	.	.	.	.	.	.
4E-\	.	.	8e-|</	.	8r	.	.	.	.	.	.	.	.	.	.	.	.	.
.	.	.	8g|</J	.	8b-\	.	.	.	.	.	.	.	.	.	16cc\LL	.	16ee-\LL	.
.	.	.	.	.	.	.	.	.	.	.	.	.	.	.	16b-\JJ	.	16dd-\JJ	.
!	!	!	!	!	!LO:LB:g=original	!	!	!	!	!	!	!	!	!	!LO:LB:g=original	!	!	!
=13	=13	=13	=13	=13	=13	=13	=13	=13	=13	=13	=13	=13	=13	=13	=13	=13	=13	=13
4A-\	.	.	(8.a-/L	.	(>8.cc\L	.	2.ryy	2.ryy	0.r	.	0.r	.	2.ryy	2.ryy	4a-\	.	4cc\	.
.	.	.	16g/Jk)	.	16b-\Jk)	.	.	.	.	.	.	.	.	.	.	.	.	.
4r	.	.	8a-|</L	.	8cc|>\L	.	.	.	.	.	.	.	.	.	4r	.	4r	.
.	.	.	8b-|</	.	8dd-|>\	.	.	.	.	.	.	.	.	.	.	.	.	.
4r	.	.	8cc|</	.	8ee-|>\	.	.	.	.	.	.	.	.	.	4r	.	4r	.
.	.	.	8a-|</J	.	8cc|>\J	.	.	.	.	.	.	.	.	.	.	.	.	.
!	!	!	!LO:LB:g=original	!	!	!	!	!	!	!	!	!	!	!	!	!	!LO:LB:g=original	!
=14	=14	=14	=14	=14	=14	=14	=14	=14	=14	=14	=14	=14	=14	=14	=14	=14	=14	=14
4r	.	.	8g|/L	.	8b-|</L	.	2.ryy	2.ryy	.	.	.	.	2.ryy	2.ryy	4r	.	4r	.
.	.	.	8f|/	.	8a-|</	.	.	.	.	.	.	.	.	.	.	.	.	.
4r	.	.	8e-|/	.	8g|</	.	.	.	.	.	.	.	.	.	4r	.	4r	.
.	.	.	8d-|/J	.	8f|</J	.	.	.	.	.	.	.	.	.	.	.	.	.
8r	.	.	(8.c/L	.	(8.e-/L	.	.	.	.	.	.	.	.	.	8r	.	8r	.
8A-\	.	.	.	.	.	.	.	.	.	.	.	.	.	.	8a-\	.	8cc\	.
.	.	.	32B-/LL	.	32d-/LL	.	.	.	.	.	.	.	.	.	.	.	.	.
.	.	.	32c/JJJ)	.	32e-/JJJ)	.	.	.	.	.	.	.	.	.	.	.	.	.
=15	=15	=15	=15	=15	=15	=15	=15	=15	=15	=15	=15	=15	=15	=15	=15	=15	=15	=15
!LO:TX:t=P:problem=mixed beam	!	!	!	!	!	!	!	!	!	!	!	!	!	!	!	!	!	!
8D-\L	6	.	8d-/L	.	16f/LL	.	2.ryy	2.ryy	.	.	.	.	2.ryy	2.ryy	4b-\	.	4dd-\	.
.	.	.	.	.	(16b-/	.	.	.	.	.	.	.	.	.	.	.	.	.
!	!	!	!LO:SIC:s=(16fL	!	!	!	!	!	!	!	!	!	!	!	!	!	!	!
8D-\	.	.	16f/L	.	16dd-/	.	.	.	.	.	.	.	.	.	.	.	.	.
!	!	!	!LO:SIC:s=16d-JJ)	!	!	!	!	!	!	!	!	!	!	!	!	!	!	!
.	.	.	16d-/JJ	.	16b-/JJ)	.	.	.	.	.	.	.	.	.	.	.	.	.
8E-\	4	.	4c/	.	4a-/	.	.	.	.	.	.	.	.	.	4a-\	.	4cc\	.
8E-\	.	.	.	.	.	.	.	.	.	.	.	.	.	.	.	.	.	.
8EE-/	3	.	4B-/	.	4g/	.	.	.	.	.	.	.	.	.	4g\	.	4b-\	.
8EE-/J	.	.	.	.	.	.	.	.	.	.	.	.	.	.	.	.	.	.
=16	=16	=16	=16	=16	=16	=16	=16	=16	=16	=16	=16	=16	=16	=16	=16	=16	=16	=16
!	!	!	!LO:SIC:s=(8cL	!	!	!	!	!	!	!	!	!	!	!	!	!	!	!
4AA-/	.	.	8c/L	.	(<8a-/L	.	2.ryy	2.ryy	.	.	.	.	2.ryy	2.ryy	4a-\	.	4cc\	.
!	!	!	!LO:SIC:s=8e-J)	!	!	!	!	!	!	!	!	!	!	!	!	!	!	!
.	.	.	8e-/J	.	8cc/J)	.	.	.	.	.	.	.	.	.	.	.	.	.
4AA-/	.	.	4c/	.	4a-/	.	.	.	.	.	.	.	.	.	4a-\	.	4cc\	.
4r	.	.	4r	.	4r	.	.	.	.	.	.	.	.	.	4r	.	4r	.
=17	=17	=17	=17	=17	=17	=17	=17	=17	=17	=17	=17	=17	=17	=17	=17	=17	=17	=17
!LO:MO:mod=*tremolo	!	!	!	!	!	!	!	!	!	!	!	!	!	!	!	!	!	!
*null	*	*	*	*	*	*	*	*	*	*	*	*	*	*	*	*	*	*
!	!	!	!	!	!	!	!	!	!	!	!LO:TX:a:i:t=solo:mod=	!	!	!	!	!	!	!
!	!	!LO:DY:a:t=p.:rj:mod=%s	!	!LO:DY:a:t=p.:mod=%s	!	!LO:MO:null:mod=p	!	!	!LO:TX:a:i:t=Solo:mod=	!	!	!	!	!	!	!	!	!
8A-\L	.	p	4.a-/	p	4.cc\	.	2.ryy	2.ryy	4.a-\	Be-	4.cc\	Be-	2.ryy	2.ryy	1.r	.	1.r	.
8A-\	.	.	.	.	.	.	.	.	.	.	.	.	.	.	.	.	.	.
8A-\	.	.	.	.	.	.	.	.	.	.	.	.	.	.	.	.	.	.
!	!	!	!	!	!	!LO:DY:a:t=p&colon;:mod= 	!	!	!	!	!	!	!	!	!	!	!	!
8A-\	.	.	16g/LL	.	16b-\LL	p	.	.	16g\LL	.	16b-\LL	.	.	.	.	.	.	.
.	.	.	16a-/JJ	.	16cc\JJ	.	.	.	16a-\JJ	.	16cc\JJ	.	.	.	.	.	.	.
8A-\	4_ 2_	.	8b-/L	.	8dd-\L	.	.	.	8b-\L	-ne-	8dd-\L	-ne-	.	.	.	.	.	.
8A-\J	x	.	8g/J	.	8b-\J	.	.	.	8g\J	.	8b-\J	.	.	.	.	.	.	.
!LO:LB:g=original	!	!	!	!	!	!	!	!	!	!	!	!	!	!	!	!	!	!
=18	=18	=18	=18	=18	=18	=18	=18	=18	=18	=18	=18	=18	=18	=18	=18	=18	=18	=18
8A-\L	3	.	8a-/L	.	8cc\L	.	2.ryy	2.ryy	8a-\L	-di-	8cc\L	-di-	2.ryy	2.ryy	.	.	.	.
8A-\	_	.	8cc/J	.	8ee-\J	.	.	.	8cc\J	.	8ee-\J	.	.	.	.	.	.	.
8A-\	.	.	4.cc/	.	4.ee-\	.	.	.	4.cc\	-ctus	4.ee-\	-ctus	.	.	.	.	.	.
8A-\	.	.	.	.	.	.	.	.	.	.	.	.	.	.	.	.	.	.
8A-\	x	.	.	.	.	.	.	.	.	.	.	.	.	.	.	.	.	.
8A-\J	4 2	.	8b-/	.	8dd-\	.	.	.	8b-\	qui	8dd-\	qui	.	.	.	.	.	.
=19	=19	=19	=19	=19	=19	=19	=19	=19	=19	=19	=19	=19	=19	=19	=19	=19	=19	=19
8A-\L	3	.	8b-/L	.	8dd-\L	.	2.ryy	2.ryy	8b-\L	ve-	8dd-\L	ve-	2.ryy	2.ryy	2.r	.	2.r	.
8A-\	_	.	8a-/J	.	8cc\J	.	.	.	8a-\J	.	8cc\J	.	.	.	.	.	.	.
8A-\	.	.	4.a-/	.	4.cc\	.	.	.	4.a-\	-nit	4.cc\	-nit	.	.	.	.	.	.
8A-\	.	.	.	.	.	.	.	.	.	.	.	.	.	.	.	.	.	.
8A-\	x	.	.	.	.	.	.	.	.	.	.	.	.	.	.	.	.	.
*	*	*	*	*	*	*	*	*	*	*ij	*	*ij	*	*	*	*	*	*
8A-\J	4 2	.	16f/LL	.	16dd-\LL	.	.	.	16f\LL	qui	16dd-\LL	qui	.	.	.	.	.	.
.	.	.	16d-/JJ	.	16b-\JJ	.	.	.	16d-\JJ	.	16b-\JJ	.	.	.	.	.	.	.
!LO:MO:mod=*Xtremolo	!	!	!	!	!	!	!	!	!	!	!	!	!	!	!	!	!	!
*null	*	*	*	*	*	*	*	*	*	*	*	*	*	*	*	*	*	*
!	!	!	!	!	!LO:LB:g=original	!	!	!	!	!	!	!	!	!	!	!	!	!
=20	=20	=20	=20	=20	=20	=20	=20	=20	=20	=20	=20	=20	=20	=20	=20	=20	=20	=20
!	!	!	!	!	!	!	!	!	!	!	!	!	!	!	!	!	!LO:TX:a:i:t=Solo:mod=	!
4A-\	3	.	8d-/L	.	8b-/L	.	2.ryy	2.ryy	8d-\L	ve-	8b-\L	ve-	2.ryy	2.ryy	4r	.	4r	.
.	.	.	8c/J	.	8a-/J	.	.	.	8c\J	.	8a-\J	.	.	.	.	.	.	.
4AA-/	_	.	4c/	.	4a-/	.	.	.	4c\	-nit	4a-\	-nit	.	.	8r	.	8r	.
*	*	*	*	*	*	*	*	*	*	*Xij	*	*Xij	*	*	*	*	*	*
!	!	!	!	!	!	!	!	!	!	!	!	!	!	!	!	!LO:MO:mod=!LO&colon;DY&colon;ed=brack	!	!
!	!	!	!	!	!	!	!	!	!	!	!	!	!	!	!	!null	!	!
!	!	!	!	!	!	!	!	!	!	!	!	!	!	!	!LO:TX:a:t=Solo:mod=	!LO:MO:null:mod=p	!	!LO:DY:a:t=p.:mod=%s
.	.	.	.	.	.	.	.	.	.	.	.	.	.	.	(16a-\LL	.	(16cc\LL	p
.	.	.	.	.	.	.	.	.	.	.	.	.	.	.	16b-\JJ)	.	16dd-\JJ)	.
8r	x	.	8r	.	8r	.	.	.	8r	.	8r	.	.	.	8a-|>\L	.	8cc|>\L	.
8A-\	.	.	8A-/	.	8c/	.	.	.	8a-\	qui	8cc\	qui	.	.	8a-|>\J	.	8cc|>\J	.
!	!	!	!LO:LB:g=original	!	!	!	!	!	!LO:LB:g=original	!	!	!	!	!	!	!	!	!
=21	=21	=21	=21	=21	=21	=21	=21	=21	=21	=21	=21	=21	=21	=21	=21	=21	=21	=21
4E-\	.	.	(8.G/L	.	(<8.B-/L	.	2.ryy	2.ryy	8.g\L	ve-	8.b-\L	ve-	2.ryy	2.ryy	(8.g\L	.	(8.b-\L	.
.	.	.	16A-/Jk)	.	16c/Jk)	.	.	.	16a-\Jk	.	16cc\Jk	.	.	.	16a-\Jk)	.	16cc\Jk)	.
!	!	!	!	!	!	!	!	!	!	!	!LO:LB:g=original	!	!	!	!	!	!	!
4EE-/	.	.	4B-|</	.	4d-|</	.	.	.	4b-\	-nit	4dd-\	-nit	.	.	8b-|>\L	.	8dd-|>\L	.
.	.	.	.	.	.	.	.	.	.	.	.	.	.	.	8b-|>\	.	8dd-|>\	.
8r	.	.	8r	.	8r	.	.	.	8r	.	8r	.	.	.	8b-|>\	.	8dd-|>\	.
*	*	*	*	*	*	*	*	*	*	*ij	*	*ij	*	*	*	*	*	*
!	!	!	!	!	!LO:SIC:s=8d-|	!	!	!	!	!	!	!	!	!	!	!	!	!
8E-\	.	.	8B-|</	.	8d-/	.	.	.	8b-\	qui	8dd-\	qui	.	.	8b-|>\J	.	8dd-|>\J	.
=22	=22	=22	=22	=22	=22	=22	=22	=22	=22	=22	=22	=22	=22	=22	=22	=22	=22	=22
4A-\	.	.	(8.A-/L	.	(8.c/L	.	2.ryy	2.ryy	8.a-\L	ve-	8.cc\L	ve-	2.ryy	2.ryy	(8.a-\L	.	(8.cc\L	.
.	.	.	16B-/Jk)	.	16d-/Jk)	.	.	.	16b-\Jk	.	16dd-\Jk	.	.	.	16b-\Jk)	.	16dd-\Jk)	.
4AA-/	.	.	4c|</	.	4e-|</	.	.	.	4cc\	-nit	4ee-\	-nit	.	.	8cc\|>L	.	8ee-|>\L	.
*	*	*	*	*	*	*	*	*	*	*Xij	*	*Xij	*	*	*	*	*	*
.	.	.	.	.	.	.	.	.	.	.	.	.	.	.	8cc|>\	.	8ee-|>\	.
8r	.	.	8r	.	8r	.	.	.	8r	.	8r	.	.	.	8cc|>\	.	8ee-|>\	.
!	!	!	!	!	!LO:SIC:s=8e-|	!	!	!	!	!	!	!	!	!	!	!	!	!
8A-\	.	.	8c|</	.	8e-/	.	.	.	8cc\	in	8ee-\	in	.	.	8cc|>\J	.	8ee-|>\J	.
!	!	!	!	!	!	!	!	!	!	!	!	!	!	!	!LO:LB:g=original	!	!LO:PB:g=original	!
=23	=23	=23	=23	=23	=23	=23	=23	=23	=23	=23	=23	=23	=23	=23	=23	=23	=23	=23
4D-\	6	.	(8d-/L	.	(<8f/L	.	2.ryy	2.ryy	8dd-\L	no-	8ff\L	no-	2.ryy	2.ryy	(8dd-\L	.	(8ff\L	.
.	.	.	8c/)	.	8e-/)	.	.	.	8cc\J	.	8ee-\J	.	.	.	8cc\)	.	8ee-\)	.
4D-\	_	.	(8c/	.	(<8e-/	.	.	.	8cc\L	-mi-	8ee-\L	-mi-	.	.	(8cc\	.	(8ee-\	.
.	.	.	8B-/)	.	8d-/)	.	.	.	8b-\J	.	8dd-\J	.	.	.	8b-\)	.	8dd-\)	.
4Dn\	5	.	(8B-/	.	(<8d-/	.	.	.	8b-\L	-ne	8dd-\L	-ne	.	.	(8b-\	.	(8dd-\	.
.	.	.	8A-/J)	.	8c/J)	.	.	.	8a-\J	.	8cc\J	.	.	.	8a-\J)	.	8cc\J)	.
=24	=24	=24	=24	=24	=24	=24	=24	=24	=24	=24	=24	=24	=24	=24	=24	=24	=24	=24
4E-\	4	.	(8.A-/L	.	(8.c/L	.	2.ryy	2.ryy	8.a-\	Do-	8.cc\	Do-	2.ryy	2.ryy	8.a-\L	.	8.cc\L	.
.	.	.	32G/LL	.	32B-/LL	.	.	.	32g\LLL	-mi-	32b-\LLL	-mi-	.	.	32g\LL	.	32b-\LL	.
.	.	.	32A-/JJJ)	.	32c/JJJ)	.	.	.	32a-\JJJ	.	32cc\JJJ	.	.	.	32a-\JJJ	.	32cc\JJJ	.
!LO:TX:t=P:problem=mixed beam	!	!	!	!	!	!	!	!	!	!LO:MO:mod=-ni.	!	!LO:MO:mod=-ni.	!	!	!	!	!	!
8EE-/L	3	.	4G|</	.	4B-|</	.	.	.	4g\	-ni	4b-\	-ni	.	.	4g/	.	4b-\	.
8E-\J	.	.	.	.	.	.	.	.	.	.	.	.	.	.	.	.	.	.
8BB-/L	.	.	4r	.	4r	.	.	.	4r	.	4r	.	.	.	4r	.	4r	.
8GG/J	.	.	.	.	.	.	.	.	.	.	.	.	.	.	.	.	.	.
=25	=25	=25	=25	=25	=25	=25	=25	=25	=25	=25	=25	=25	=25	=25	=25	=25	=25	=25
!	!	!	!	!	!LO:MO:mod=*null:null	!	!	!	!	!	!LO:MO:mod=*null:null	!	!	!	!	!	!	!
*	*	*	*	*	*2\right	*	*	*	*2\right	*	*2\right	*	*	*	*	*	*	*
!LO:TX:t=P:problem=mixed beam	!	!	!	!	!	!	!	!	!	!	!	!	!	!	!	!	!	!
8EE-/L	.	.	2g/	.	2b-\	.	2.ryy	2.ryy	(>2g\	Be-	(>2b-\	Be-	2.ryy	2.ryy	0.r	.	0.r	.
8E-\	.	.	.	.	.	.	.	.	.	.	.	.	.	.	.	.	.	.
8E-\	.	.	.	.	.	.	.	.	.	.	.	.	.	.	.	.	.	.
8E-\	.	.	.	.	.	.	.	.	.	.	.	.	.	.	.	.	.	.
!	!	!	!	!	!	!	!	!	!LO:SIC:s=16a-LL	!	!LO:SIC:s=16ccLL	!	!	!	!	!	!	!
8E-\	6_ 4_	.	16a-/LL	.	16cc\LL	.	.	.	16a-\LL)	.	16cc\LL)	.	.	.	.	.	.	.
!	!	!	!	!	!	!	!	!	!LO:SIC:s=16b-JJ)	!	!LO:SIC:s=16ddJJ)	!	!	!	!	!	!	!
.	.	.	16b-/	.	16ddn\	.	.	.	16b-\JJ	.	16ddn\JJ	.	.	.	.	.	.	.
8E-\J	x	.	16cc/	.	16ee-\	.	.	.	16cc\LL	-ne-	16ee-\LL	-ne-	.	.	.	.	.	.
.	.	.	16a-/JJ	.	16cc\JJ	.	.	.	16a-\JJ	.	16cc\JJ	.	.	.	.	.	.	.
!	!	!	!	!	!	!	!	!	!LO:LB:g=original	!	!	!	!	!	!	!	!	!
=26	=26	=26	=26	=26	=26	=26	=26	=26	=26	=26	=26	=26	=26	=26	=26	=26	=26	=26
!LO:MO:mod=*null:null	!	!	!	!	!	!	!	!	!	!	!	!	!	!	!	!	!	!
*2\right	*	*	*	*	*	*	*	*	*	*	*	*	*	*	*	*	*	*
*tremolo	*	*	*	*	*	*	*	*	*	*	*	*	*	*	*	*	*	*
!	!	!	!LO:SIC:s=(8a-L	!	!	!	!	!	!	!	!	!	!	!	!	!	!	!
8E-\L	3	.	8a-/L	.	(8cc\L	.	2.ryy	2.ryy	8a-\L	-di-	8cc\L	-di-	2.ryy	2.ryy	.	.	.	.
!	!	!	!LO:SIC:s=8gJ)	!	!	!	!	!	!	!	!	!	!	!	!	!	!	!
8E-\	_	.	8g/J	.	8b-\J)	.	.	.	8g\J	.	8b-\J	.	.	.	.	.	.	.
8E-\	.	.	4g/	.	4.b-\	.	.	.	4.g\	-ctus	4.b-\	-ctus	.	.	.	.	.	.
8E-\	.	.	.	.	.	.	.	.	.	.	.	.	.	.	.	.	.	.
8E-\	.	.	4g/	.	.	.	.	.	.	.	.	.	.	.	.	.	.	.
8E-\J	x	.	.	.	8ee-\	.	.	.	8g\	qui	8ee-\	qui	.	.	.	.	.	.
*Xtremolo	*	*	*	*	*	*	*	*	*	*	*	*	*	*	*	*	*	*
!LO:LB:g=original	!	!	!	!	!LO:LB:g=original	!	!	!	!	!	!LO:LB:g=original	!	!	!	!	!	!	!
=27	=27	=27	=27	=27	=27	=27	=27	=27	=27	=27	=27	=27	=27	=27	=27	=27	=27	=27
!LO:TX:t=P:problem=mixed beam	!	!	!	!	!LO:SIC:s=(16ddLL	!	!	!	!	!	!LO:SIC:s=(16ddLL	!	!	!	!	!	!	!
8A-\L	6	.	(16b-/LL	.	(16dd-\LL	.	2.ryy	2.ryy	16b-\LL	ve-	16dd-\LL	ve-	2.ryy	2.ryy	.	.	.	.
.	.	.	16a-/)	.	16cc\)	.	.	.	16a-\	.	16cc\	.	.	.	.	.	.	.
8A-\	.	.	(16g/	.	(16b-\	.	.	.	16g\	.	16b-\	.	.	.	.	.	.	.
.	.	.	16a-/JJ)	.	16cc\JJ)	.	.	.	16a-\JJ	.	16cc\JJ	.	.	.	.	.	.	.
8B-\	4	.	(8g/L	.	(8b-/L	.	.	.	4g\	-nit	4b-\	-nit	.	.	.	.	.	.
8B-\	.	.	8e-/)	.	8g/)	.	.	.	.	.	.	.	.	.	.	.	.	.
*	*	*	*	*	*	*	*	*	*	*ij	*	*ij	*	*	*	*	*	*
8BB-/	3	.	(8dn/	.	(8f/	.	.	.	4f\	qui	4a-\	qui	.	.	.	.	.	.
8BB-/J	.	.	8f/J)	.	8a-/J)	.	.	.	.	.	.	.	.	.	.	.	.	.
!	!	!	!LO:LB:g=original	!	!	!	!	!	!	!	!	!	!	!	!	!	!	!
=28	=28	=28	=28	=28	=28	=28	=28	=28	=28	=28	=28	=28	=28	=28	=28	=28	=28	=28
!	!	!	!	!	!LO:SIC:s=(8a-L	!	!	!	!	!	!	!	!	!	!	!	!	!
4E-\	.	.	(8f/L	.	8a-/L	.	2.ryy	2.ryy	8f\L	ve-	8a-\L	ve-	2.ryy	2.ryy	.	.	.	.
.	.	.	16e-/L	.	16g/L	.	.	.	16e-\L	.	16g\L	.	.	.	.	.	.	.
!	!	!	!	!	!LO:SIC:s=16a-JJ)	!	!	!	!	!	!	!	!	!	!	!	!	!
.	.	.	16f/JJ)	.	16a-/JJ	.	.	.	16f\JJ	.	16a-\JJ	.	.	.	.	.	.	.
4EE-/	.	.	4e-/	.	4g/	.	.	.	4e-\	-nit	4g\	-nit	.	.	.	.	.	.
*	*	*	*	*	*	*	*	*	*	*Xij	*	*Xij	*	*	*	*	*	*
4r	.	.	4r	.	4r	.	.	.	4g\	qui	4b-\	qui	.	.	.	.	.	.
=29	=29	=29	=29	=29	=29	=29	=29	=29	=29	=29	=29	=29	=29	=29	=29	=29	=29	=29
4E-\	.	.	4G/	.	4B-/	.	2.ryy	2.ryy	4g\	ve-	4b-\	ve-	2.ryy	2.ryy	2.r	.	2.r	.
4EE-/	.	.	4G/	.	4B-/	.	.	.	16f\LL	.	16an\LL	.	.	.	.	.	.	.
.	.	.	.	.	.	.	.	.	16g\	.	16b-\	.	.	.	.	.	.	.
.	.	.	.	.	.	.	.	.	16f\	.	16a\	.	.	.	.	.	.	.
.	.	.	.	.	.	.	.	.	16g\JJ	.	16b-\JJ	.	.	.	.	.	.	.
4r	.	.	4r	.	4r	.	.	.	16cc\LL	.	16ee-\LL	.	.	.	.	.	.	.
!	!	!	!	!	!	!	!	!	!	!	!LO:SIC:s=16dd	!	!	!	!	!	!	!
.	.	.	.	.	.	.	.	.	16b-\	.	16dd-\	.	.	.	.	.	.	.
.	.	.	.	.	.	.	.	.	16a-\	.	16cc\	.	.	.	.	.	.	.
.	.	.	.	.	.	.	.	.	16g\JJ	.	16b-\JJ	.	.	.	.	.	.	.
=30	=30	=30	=30	=30	=30	=30	=30	=30	=30	=30	=30	=30	=30	=30	=30	=30	=30	=30
4E-\	6 4	.	4A-/	.	4c/	.	2.ryy	2.ryy	4a-\	-nit	4cc\	-nit	2.ryy	2.ryy	8r	.	8r	.
.	.	.	.	.	.	.	.	.	.	.	.	.	.	.	8cc|>\L	.	8aa-|>\L	.
4EE-/	.	.	4A-/	.	4c/	.	.	.	4r	.	4r	.	.	.	8ee-|>\	.	8gg|>\	.
!	!	!	!	!	!	!	!	!	!	!	!	!	!	!	!LO:SIC:s=8dd|	!	!	!
.	.	.	.	.	.	.	.	.	.	.	.	.	.	.	8dd-|>\	.	8ff|>\	.
4r	.	.	4r	.	4r	.	.	.	4r	.	4r	.	.	.	8cc|>\	.	8ee-|>\	.
!	!	!	!	!	!	!	!	!	!	!	!	!	!	!	!	!	!LO:SIC:s=8dd|J	!
.	.	.	.	.	.	.	.	.	.	.	.	.	.	.	8b-|>\J	.	8dd-|>\J	.
=31	=31	=31	=31	=31	=31	=31	=31	=31	=31	=31	=31	=31	=31	=31	=31	=31	=31	=31
4E-\	_ _	.	4A-/	.	4c/	.	2.ryy	2.ryy	4a-\	qui	4cc\	qui	2.ryy	2.ryy	4a-|>\	.	4cc|>\	.
4EE-/	x	.	4A-/	.	4c/	.	.	.	16g\LL	ve-	16b-\LL	ve-	.	.	4r	.	4r	.
.	.	.	.	.	.	.	.	.	16a-\	.	16cc\	.	.	.	.	.	.	.
.	.	.	.	.	.	.	.	.	16g\	.	16b-\	.	.	.	.	.	.	.
.	.	.	.	.	.	.	.	.	16a-\JJ	.	16cc\JJ	.	.	.	.	.	.	.
!	!	!	!	!	!	!	!	!	!LO:LB:g=original	!	!	!	!	!	!	!	!	!
4r	.	.	4r	.	4r	.	.	.	8cc\L	.	16ff\LL	.	.	.	4r	.	4r	.
.	.	.	.	.	.	.	.	.	.	.	16ee-\	.	.	.	.	.	.	.
!	!	!	!	!	!	!	!	!	!	!	!LO:SIC:s=16dd	!	!	!	!	!	!	!
.	.	.	.	.	.	.	.	.	16b-\L	.	16dd-\	.	.	.	.	.	.	.
.	.	.	.	.	.	.	.	.	16a-\JJ	.	16cc\JJ	.	.	.	.	.	.	.
=32	=32	=32	=32	=32	=32	=32	=32	=32	=32	=32	=32	=32	=32	=32	=32	=32	=32	=32
4E-\	3	.	4G/	.	4B-/	.	2.ryy	2.ryy	4g\	-nit	4b-\	-nit	2.ryy	2.ryy	8r	.	8r	.
.	.	.	.	.	.	.	.	.	.	.	.	.	.	.	8ee-|>\L	.	8gg|>\L	.
4EE-/	.	.	4G/	.	4B-/	.	.	.	4r	.	4r	.	.	.	8dd|>\	.	8ff|>\	.
.	.	.	.	.	.	.	.	.	.	.	.	.	.	.	8cc|>\	.	8ee-|>\	.
4r	.	.	4r	.	4r	.	.	.	4r	.	4r	.	.	.	8b-|>\	.	8dd|>\	.
.	.	.	.	.	.	.	.	.	.	.	.	.	.	.	8a-|>\J	.	8cc|>\J	.
!	!	!	!	!	!	!	!	!	!	!	!LO:LB:g=original	!	!	!	!	!	!	!
=33	=33	=33	=33	=33	=33	=33	=33	=33	=33	=33	=33	=33	=33	=33	=33	=33	=33	=33
4E-\	_	.	4G/	.	4B-/	.	2.ryy	2.ryy	4g\	qui	4b-\	qui	2.ryy	2.ryy	4g/	.	4b-|>\	.
4EE-/	.	.	4G/	.	4B-/	.	.	.	16e-\LL	ve-	16g\LL	ve-	.	.	4r	.	4r	.
.	.	.	.	.	.	.	.	.	16dn\	.	16f\	.	.	.	.	.	.	.
.	.	.	.	.	.	.	.	.	16e-\	.	16g\	.	.	.	.	.	.	.
.	.	.	.	.	.	.	.	.	16f\JJ	.	16a-\JJ	.	.	.	.	.	.	.
4r	x	.	4r	.	4r	.	.	.	16g\LL	.	16b-\LL	.	.	.	4r	.	4r	.
.	.	.	.	.	.	.	.	.	16a-\	.	16cc\	.	.	.	.	.	.	.
.	.	.	.	.	.	.	.	.	16b-\	.	16ddn\	.	.	.	.	.	.	.
.	.	.	.	.	.	.	.	.	16g\JJ	.	16ee-\JJ	.	.	.	.	.	.	.
!	!	!	!	!	!	!	!	!	!	!	!	!	!	!	!	!	!LO:LB:g=original	!
=34	=34	=34	=34	=34	=34	=34	=34	=34	=34	=34	=34	=34	=34	=34	=34	=34	=34	=34
!	!	!	!	!	!	!	!	!	!	!	!LO:SIC:v:s=4dd\	!	!	!	!	!	!	!
2.BB-/	n	.	2.A-/	.	2.dn/	.	2.ryy	2.ryy	4f\	-nit	4dd-\	-nit	2.ryy	2.ryy	8dd|>\L	.	8ff|>\L	.
.	.	.	.	.	.	.	.	.	.	.	.	.	.	.	8cc|>\	.	8ee-|>\	.
.	.	.	.	.	.	.	.	.	4r	.	4r	.	.	.	8b-|>\	.	8dd|>\	.
.	.	.	.	.	.	.	.	.	.	.	.	.	.	.	8a-|>\	.	8cc|>\	.
.	.	.	.	.	.	.	.	.	4r	.	4r	.	.	.	8g|>\	.	8b-|>\	.
.	.	.	.	.	.	.	.	.	.	.	.	.	.	.	8f|>\J	.	8a-|>\J	.
!	!	!	!	!	!	!	!	!	!	!	!	!	!	!	!LO:LB:g=original	!	!	!
=35	=35	=35	=35	=35	=35	=35	=35	=35	=35	=35	=35	=35	=35	=35	=35	=35	=35	=35
4EE-/	.	.	4G/	.	4e-/	.	2.ryy	2.ryy	8e-\L	qui	8g\L	qui	2.ryy	2.ryy	4e-/	.	4g/	.
.	.	.	.	.	.	.	.	.	8f\J	.	8a-\J	.	.	.	.	.	.	.
4r	.	.	4r	.	4r	.	.	.	8g\L	ve-	8b-\L	ve-	.	.	4r	.	4r	.
.	.	.	.	.	.	.	.	.	8a-\	.	8cc\	.	.	.	.	.	.	.
4r	.	.	4r	.	4r	.	.	.	8b-\	.	8ddn\	.	.	.	4r	.	4r	.
.	.	.	.	.	.	.	.	.	8g\J	.	8ee-\J	.	.	.	.	.	.	.
=36	=36	=36	=36	=36	=36	=36	=36	=36	=36	=36	=36	=36	=36	=36	=36	=36	=36	=36
4AA-/	6	.	4c/	.	2f/	.	2.ryy	2.ryy	8a-\L	.	8ff\L	.	2.ryy	2.ryy	2f/	.	4cc\	.
.	.	.	.	.	.	.	.	.	8cc\	.	8aa-\J	.	.	.	.	.	.	.
4BB-/	n	.	4dn/	.	.	.	.	.	8f\	.	8ddn\L	.	.	.	.	.	4dd\	.
.	.	.	.	.	.	.	.	.	8a-\J	.	8ff\J	.	.	.	.	.	.	.
4E-\	.	.	4e-/	.	4g/	.	.	.	4g\	-nit	4ee-\	-nit	.	.	4g/	.	4ee-\	.
!	!	!	!	!	!LO:LB:g=original	!	!	!	!	!	!	!	!	!	!	!	!	!
=37	=37	=37	=37	=37	=37	=37	=37	=37	=37	=37	=37	=37	=37	=37	=37	=37	=37	=37
4A-\	.	.	4c/	.	4e-/	.	2.ryy	2.ryy	8.a-\L	in	8.cc\L	in	2.ryy	2.ryy	4cc\	.	4ee-\	.
.	.	.	.	.	.	.	.	.	16b-\Jk	.	16dd-\Jk	.	.	.	.	.	.	.
4A-\	.	.	4c/	.	4e-/	.	.	.	16a-\LL	no-	16cc\LL	no-	.	.	4cc\	.	4ee-\	.
.	.	.	.	.	.	.	.	.	16g\	.	16b-\	.	.	.	.	.	.	.
.	.	.	.	.	.	.	.	.	16a-\	.	16cc\	.	.	.	.	.	.	.
.	.	.	.	.	.	.	.	.	16g\JJ	.	16b-\JJ	.	.	.	.	.	.	.
!	!	!	!	!	!	!	!	!	!LO:LB:g=original	!	!	!	!	!	!	!	!	!
4r	.	.	4r	.	4r	.	.	.	16a-\LL	.	16cc\LL	.	.	.	4r	.	4r	.
.	.	.	.	.	.	.	.	.	16b-\	.	16ddn\	.	.	.	.	.	.	.
.	.	.	.	.	.	.	.	.	16cc\	.	16ee-\	.	.	.	.	.	.	.
.	.	.	.	.	.	.	.	.	16a-\JJ	.	16cc\JJ	.	.	.	.	.	.	.
!LO:LB:g=original	!	!	!LO:LB:g=original	!	!	!	!	!	!	!	!	!	!	!	!	!	!	!
=38	=38	=38	=38	=38	=38	=38	=38	=38	=38	=38	=38	=38	=38	=38	=38	=38	=38	=38
4G\	6	.	4B-/	.	4e-/	.	2.ryy	2.ryy	16g\LL	.	16b-\LL	.	2.ryy	2.ryy	4b-\	.	4ee-\	.
.	.	.	.	.	.	.	.	.	16a-\	.	16cc\	.	.	.	.	.	.	.
.	.	.	.	.	.	.	.	.	16g\	.	16b-\	.	.	.	.	.	.	.
.	.	.	.	.	.	.	.	.	16f\JJ	.	16a-\JJ	.	.	.	.	.	.	.
!	!	!	!	!	!	!	!	!	!	!	!LO:LB:g=original	!	!	!	!	!	!	!
4G\	_	.	4B-/	.	4e-/	.	.	.	16e-\LL	.	16g\LL	.	.	.	4b-\	.	4ee-\	.
.	.	.	.	.	.	.	.	.	16f\	.	16a-\	.	.	.	.	.	.	.
.	.	.	.	.	.	.	.	.	16g\	.	16b-\	.	.	.	.	.	.	.
.	.	.	.	.	.	.	.	.	16a-\JJ	.	16cc\JJ	.	.	.	.	.	.	.
4r	x	.	4r	.	4r	.	.	.	16b-\LL	.	16ddn\LL	.	.	.	4r	.	4r	.
.	.	.	.	.	.	.	.	.	16cc\	.	16ee-\	.	.	.	.	.	.	.
.	.	.	.	.	.	.	.	.	16ddn\	.	16ff\	.	.	.	.	.	.	.
.	.	.	.	.	.	.	.	.	16ee-\JJ	.	16gg\JJ	.	.	.	.	.	.	.
=39	=39	=39	=39	=39	=39	=39	=39	=39	=39	=39	=39	=39	=39	=39	=39	=39	=39	=39
4A-\	6	.	8c/L	.	8f/L	.	2.ryy	2.ryy	8cc\	.	8aa-\	.	2.ryy	2.ryy	4a-/	.	4ff\	.
.	.	.	8f/J	.	8a-/J	.	.	.	16b-\	-mi-	16gg\	-mi-	.	.	.	.	.	.
.	.	.	.	.	.	.	.	.	16a-\	-ne	16ff\	-ne	.	.	.	.	.	.
4B-\	4	.	4e-/	.	4g/	.	.	.	4g\	Do-	4ee-\	Do-	.	.	4g/	.	4ee-\	.
4BB-/	n	.	4dn/	.	4f/	.	.	.	4f\	-mi-	4ddn\	-mi-	.	.	4f/	.	4dd\	.
=40	=40	=40	=40	=40	=40	=40	=40	=40	=40	=40	=40	=40	=40	=40	=40	=40	=40	=40
.	.	.	.	.	16qqa-/	.	.	.	.	.	.	.	.	.	.	.	.	.
!	!	!LO:DY:a:t=for.:mod=%s	!	!LO:DY:a:t=for:mod=%s	!	!LO:DY:b:t=for&colon;:mod=%s	!	!	!	!LO:MO:mod=-ni.	!	!LO:MO:mod=-ni.	!	!	!	!	!	!
4E-\	.	f	8B-|</L	f	8g/L	f	2.ryy	2.ryy	4g\	-ni	4ee-\	-ni	2.ryy	2.ryy	4g/	.	4ee-\	.
.	.	.	8e-|</	.	16f/L	.	.	.	.	.	.	.	.	.	.	.	.	.
.	.	.	.	.	16g/JJ	.	.	.	.	.	.	.	.	.	.	.	.	.
4EE-/	.	.	8g|</	.	4.b-/	.	.	.	4r	.	4r	.	.	.	4g/	.	4ee-\	.
.	.	.	8e-|</	.	.	.	.	.	.	.	.	.	.	.	.	.	.	.
4E-\	.	.	8B-|</	.	.	.	.	.	4r	.	4r	.	.	.	4r	.	4r	.
.	.	.	8e-|</J	.	(16a-/LL	.	.	.	.	.	.	.	.	.	.	.	.	.
.	.	.	.	.	16g/JJ)	.	.	.	.	.	.	.	.	.	.	.	.	.
=41	=41	=41	=41	=41	=41	=41	=41	=41	=41	=41	=41	=41	=41	=41	=41	=41	=41	=41
!	!	!	!	!	!	!	!	!	!	!	!	!	!	!	!	!LO:MO:mod=!LO&colon;DY&colon;ed=brack	!	!
!	!	!	!	!	!	!	!	!	!	!	!	!	!	!	!	!null	!	!
!	!	!	!	!	!	!	!	!	!	!	!	!	!	!	!	!LO:MO:null:mod=f	!	!LO:DY:a:t=f.:rj:mod=%s
4r	.	.	8B-|</L	.	(16b-/LL	.	2.ryy	2.ryy	0.r	.	0.r	.	2.ryy	2.ryy	8dd\L	.	8ff\L	f
.	.	.	.	.	16a-/)	.	.	.	.	.	.	.	.	.	.	.	.	.
.	.	.	8dn|</	.	(16g/	.	.	.	.	.	.	.	.	.	16cc\L	.	16ee-\L	.
.	.	.	.	.	16a-/JJ)	.	.	.	.	.	.	.	.	.	16dd\JJ	.	16ff\JJ	.
4B-\	n	.	8f|</	.	4f/	.	.	.	.	.	.	.	.	.	4.ff\	.	4.aa-\	.
.	.	.	8d|</	.	.	.	.	.	.	.	.	.	.	.	.	.	.	.
4BB-/	.	.	8B-|</	.	8r	.	.	.	.	.	.	.	.	.	.	.	.	.
.	.	.	8d|</J	.	8f/	.	.	.	.	.	.	.	.	.	16gg\LL	.	16bb-\LL	.
.	.	.	.	.	.	.	.	.	.	.	.	.	.	.	16ff\JJ	.	16aa-\JJ	.
!	!	!	!	!	!	!	!	!	!	!	!	!	!	!	!	!	!LO:LB:g=original	!
=42	=42	=42	=42	=42	=42	=42	=42	=42	=42	=42	=42	=42	=42	=42	=42	=42	=42	=42
.	.	.	.	.	16qqa-/	.	.	.	.	.	.	.	.	.	.	.	.	.
4r	.	.	8B-|</L	.	8g/L	.	2.ryy	2.ryy	.	.	.	.	2.ryy	2.ryy	8ff\L	.	8aa-\L	.
.	.	.	8e-|</	.	16f/L	.	.	.	.	.	.	.	.	.	8ee-\J	.	8gg\J	.
.	.	.	.	.	16g/JJ	.	.	.	.	.	.	.	.	.	.	.	.	.
4E-\	.	.	8g|</	.	4.b-/	.	.	.	.	.	.	.	.	.	4ee-\	.	4gg\	.
.	.	.	8e-|</	.	.	.	.	.	.	.	.	.	.	.	.	.	.	.
4EE-/	.	.	8B-|</	.	.	.	.	.	.	.	.	.	.	.	4r	.	4r	.
!	!	!	!	!	!LO:SIC:s=(16a-LL	!	!	!	!	!	!	!	!	!	!	!	!	!
.	.	.	8e-|</J	.	16a-/LL	.	.	.	.	.	.	.	.	.	.	.	.	.
!	!	!	!	!	!LO:SIC:s=16gJJ)	!	!	!	!	!	!	!	!	!	!	!	!	!
.	.	.	.	.	16g/JJ	.	.	.	.	.	.	.	.	.	.	.	.	.
!	!	!	!	!	!	!	!	!	!	!	!	!	!	!	!LO:LB:g=original	!	!	!
=43	=43	=43	=43	=43	=43	=43	=43	=43	=43	=43	=43	=43	=43	=43	=43	=43	=43	=43
!	!	!	!	!	!LO:SIC:s=(16b-LL	!	!	!	!	!	!	!	!	!	!	!	!	!
4r	.	.	8B-|</L	.	16b-/LL	.	2.ryy	2.ryy	.	.	.	.	2.ryy	2.ryy	8dd\L	.	8ff\L	.
!	!	!	!	!	!LO:SIC:s=16a-)	!	!	!	!	!	!	!	!	!	!	!	!	!
.	.	.	.	.	(16a-/	.	.	.	.	.	.	.	.	.	.	.	.	.
!	!	!	!	!	!LO:SIC:s=(16g	!	!	!	!	!	!	!	!	!	!	!	!	!
.	.	.	8dn|</	.	16g/	.	.	.	.	.	.	.	.	.	16cc\L	.	16ee-\L	.
.	.	.	.	.	16a-/JJ)	.	.	.	.	.	.	.	.	.	16dd\JJ	.	16ff\JJ	.
4BB-/	n	.	8f|</	.	4f|</	.	.	.	.	.	.	.	.	.	4.ff\	.	4.aa-\	.
.	.	.	8d|</	.	.	.	.	.	.	.	.	.	.	.	.	.	.	.
4B-\	_	.	8B-|</	.	8r	.	.	.	.	.	.	.	.	.	.	.	.	.
.	.	.	8d|</J	.	8f/	.	.	.	.	.	.	.	.	.	16gg\LL	.	16bb-\LL	.
.	.	.	.	.	.	.	.	.	.	.	.	.	.	.	16ff\JJ	.	16aa-\JJ	.
!	!	!	!	!	!LO:LB:g=original	!	!	!	!	!	!	!	!	!	!	!	!	!
=44	=44	=44	=44	=44	=44	=44	=44	=44	=44	=44	=44	=44	=44	=44	=44	=44	=44	=44
4E-\	x	.	(8.e-/L	.	(8.g/L	.	2.ryy	2.ryy	.	.	.	.	2.ryy	2.ryy	4ee-\	.	4gg\	.
.	.	.	16dn/Jk)	.	16f/Jk)	.	.	.	.	.	.	.	.	.	.	.	.	.
4r	.	.	8e-|</L	.	8g|</L	.	.	.	.	.	.	.	.	.	4r	.	4r	.
.	.	.	8f|</	.	8a-|</	.	.	.	.	.	.	.	.	.	.	.	.	.
4r	.	.	8g|</	.	8b-|</	.	.	.	.	.	.	.	.	.	4r	.	4r	.
.	.	.	8e-|</J	.	8g|</J	.	.	.	.	.	.	.	.	.	.	.	.	.
=45	=45	=45	=45	=45	=45	=45	=45	=45	=45	=45	=45	=45	=45	=45	=45	=45	=45	=45
4r	.	.	8dn|</L	.	8f|</L	.	2.ryy	2.ryy	1.r	.	1.r	.	2.ryy	2.ryy	4r	.	4r	.
.	.	.	8c|</	.	8e-|</	.	.	.	.	.	.	.	.	.	.	.	.	.
4r	.	.	8B-|</	.	8dn|</	.	.	.	.	.	.	.	.	.	4r	.	4r	.
.	.	.	8A-|</J	.	8c|</J	.	.	.	.	.	.	.	.	.	.	.	.	.
8r	.	.	4G/	.	(8.B-/L	.	.	.	.	.	.	.	.	.	8r	.	8r	.
8E-\	.	.	.	.	.	.	.	.	.	.	.	.	.	.	8ee-\	.	8gg\	.
.	.	.	.	.	32A-/LL	.	.	.	.	.	.	.	.	.	.	.	.	.
.	.	.	.	.	32B-/JJJ)	.	.	.	.	.	.	.	.	.	.	.	.	.
!	!	!	!LO:PB:g=original	!	!	!	!	!	!	!	!	!	!	!	!	!	!	!
=46	=46	=46	=46	=46	=46	=46	=46	=46	=46	=46	=46	=46	=46	=46	=46	=46	=46	=46
!LO:TX:t=P:problem=mixed beam	!	!	!	!	!	!	!	!	!	!	!	!	!	!	!	!	!	!
8A-\L	6	.	8A-|</L	.	(16c/LL	.	2.ryy	2.ryy	.	.	.	.	2.ryy	2.ryy	4ff\	.	4aa-\	.
.	.	.	.	.	16f/)	.	.	.	.	.	.	.	.	.	.	.	.	.
8A-\	.	.	(16c/L	.	(16a-/	.	.	.	.	.	.	.	.	.	.	.	.	.
.	.	.	16A-/JJ)	.	16f/JJ)	.	.	.	.	.	.	.	.	.	.	.	.	.
8B-\	4	.	4G/	.	4e-/	.	.	.	.	.	.	.	.	.	4ee-\	.	4gg\	.
8B-\	.	.	.	.	.	.	.	.	.	.	.	.	.	.	.	.	.	.
8BB-/	n	.	4A-/	.	4dn/	.	.	.	.	.	.	.	.	.	4dd\	.	4ff\	.
8BB-/J	.	.	.	.	.	.	.	.	.	.	.	.	.	.	.	.	.	.
=47	=47	=47	=47	=47	=47	=47	=47	=47	=47	=47	=47	=47	=47	=47	=47	=47	=47	=47
4E-\	.	.	8G/L	.	8e-/L	.	2.ryy	2.ryy	2.r	.	2.r	.	2.ryy	2.ryy	4ee-\	.	4gg\	.
.	.	.	8B-/J	.	8g/J	.	.	.	.	.	.	.	.	.	.	.	.	.
4E-\	.	.	4G/	.	4e-/	.	.	.	.	.	.	.	.	.	4ee-\	.	4gg\	.
4r	.	.	4r	.	4r	.	.	.	.	.	.	.	.	.	4r	.	4r	.
!LO:LB:g=original	!	!	!	!	!	!	!	!	!	!	!	!	!	!	!	!	!	!
=48	=48	=48	=48	=48	=48	=48	=48	=48	=48	=48	=48	=48	=48	=48	=48	=48	=48	=48
!LO:MO:mod=*tremolo	!	!	!	!	!	!	!	!	!	!	!	!	!	!	!	!	!	!
*null	*	*	*	*	*	*	*	*	*	*	*	*	*	*	*	*	*	*
!	!	!LO:DY:a	!	!LO:MO:null:mod=p	!	!LO:MO:null:mod=p	!	!	!	!	!	!	!	!	!	!	!	!
8E-\L	.	p	4.e-/	.	4.g/	.	2.ryy	2.ryy	(>4.g\	Be-	(>4.ee-\	Be-	2.ryy	2.ryy	1.r	.	1.r	.
8E-\	.	.	.	.	.	.	.	.	.	.	.	.	.	.	.	.	.	.
8E-\	.	.	.	.	.	.	.	.	.	.	.	.	.	.	.	.	.	.
!	!	!	!	!LO:DY:a:t=p.:rj:mod= 	!	!LO:DY:a:t=p.:rj:mod= 	!	!	!LO:SIC:s=16fLL	!	!LO:SIC:s=16ddLL	!	!	!	!	!	!	!
8E-\	.	.	16dn/LL	p	16f/LL	p	.	.	16f\LL)	.	16ddn\LL)	.	.	.	.	.	.	.
!	!	!	!	!	!	!	!	!	!LO:SIC:s=16gJJ)	!	!LO:SIC:s=16ee-JJ)	!	!	!	!	!	!	!
.	.	.	16e-/JJ	.	16g/JJ	.	.	.	16g\JJ	.	16ee-\JJ	.	.	.	.	.	.	.
8E-\	4 2	.	8f/L	.	8a-/L	.	.	.	8a-\L	-ne-	8ff\L	-ne-	.	.	.	.	.	.
8E-\J	_ _	.	8d/J	.	8f/J	.	.	.	8f\J	.	8dd\J	.	.	.	.	.	.	.
=49	=49	=49	=49	=49	=49	=49	=49	=49	=49	=49	=49	=49	=49	=49	=49	=49	=49	=49
8E-\L	3	.	8e-/L	.	8g/L	.	2.ryy	2.ryy	8g\L	-di-	8ee-\L	-di-	2.ryy	2.ryy	.	.	.	.
8E-\	_	.	8g/J	.	8b-/J	.	.	.	8b-\J	.	8gg\J	.	.	.	.	.	.	.
8E-\	.	.	4.g/	.	4.b-/	.	.	.	4.b-\	-ctus	4.gg\	-ctus	.	.	.	.	.	.
8E-\	.	.	.	.	.	.	.	.	.	.	.	.	.	.	.	.	.	.
8E-\	x	.	.	.	.	.	.	.	.	.	.	.	.	.	.	.	.	.
8E-\J	4 2	.	8f/	.	8a-/	.	.	.	8a-\	qui	8ff\	qui	.	.	.	.	.	.
!	!	!	!	!	!	!	!	!	!LO:LB:g=original	!	!	!	!	!	!	!	!	!
=50	=50	=50	=50	=50	=50	=50	=50	=50	=50	=50	=50	=50	=50	=50	=50	=50	=50	=50
8E-\L	3	.	8f/L	.	8a-/L	.	2.ryy	2.ryy	8a-\L	ve-	8ff\L	ve-	2.ryy	2.ryy	2.r	.	2.r	.
8E-\	_	.	8e-/J	.	8g/J	.	.	.	8g\J	.	8ee-\J	.	.	.	.	.	.	.
8E-\	.	.	4.e-/	.	4.g/	.	.	.	4.g\	-nit	4.ee-\	-nit	.	.	.	.	.	.
8E-\	.	.	.	.	.	.	.	.	.	.	.	.	.	.	.	.	.	.
8E-\	x	.	.	.	.	.	.	.	.	.	.	.	.	.	.	.	.	.
8E-\J	4 2	.	16c/LL	.	16a-/LL	.	.	.	16a-\LL	qui	16cc\LL	qui	.	.	.	.	.	.
.	.	.	16A-/JJ	.	16f/JJ	.	.	.	16f\JJ	.	16a-\JJ	.	.	.	.	.	.	.
!LO:MO:mod=*Xtremolo	!	!	!	!	!	!	!	!	!	!	!	!	!	!	!	!	!	!
*null	*	*	*	*	*	*	*	*	*	*	*	*	*	*	*	*	*	*
!	!	!	!	!	!LO:LB:g=original	!	!	!	!	!	!LO:LB:g=original	!	!	!	!	!	!LO:LB:g=original	!
=51	=51	=51	=51	=51	=51	=51	=51	=51	=51	=51	=51	=51	=51	=51	=51	=51	=51	=51
4E-\	3	.	8A-/L	.	8f/L	.	2.ryy	2.ryy	8f\L	ve-	8a-\L	ve-	2.ryy	2.ryy	4r	.	4r	.
.	.	.	8G/J	.	8e-/J	.	.	.	8e-\J	.	8g\J	.	.	.	.	.	.	.
4E-\	_	.	4G/	.	4e-/	.	.	.	4e-\	-nit	4g\	-nit	.	.	8r	.	8r	.
!	!	!	!	!	!	!	!	!	!	!	!	!	!	!	!LO:TX:a:t=Solo:mod=	!	!LO:TX:a:t=Solo:mod=	!LO:DY:a:t=p.:mod=%s
.	.	.	.	.	.	.	.	.	.	.	.	.	.	.	(16ee-\LL	.	(16gg\LL	p
.	.	.	.	.	.	.	.	.	.	.	.	.	.	.	16ff\JJ)	.	16aa-\JJ)	.
8r	x	.	8r	.	8r	.	.	.	8r	.	8r	.	.	.	8ee-|>\L	.	8gg|>\L	.
*	*	*	*	*	*	*	*	*	*	*ij	*	*ij	*	*	*	*	*	*
8E-\	.	.	8e-/	.	8g/	.	.	.	8g\	qui	8ee-\	qui	.	.	8ee-|>\J	.	8gg|>\J	.
=52	=52	=52	=52	=52	=52	=52	=52	=52	=52	=52	=52	=52	=52	=52	=52	=52	=52	=52
4B-\	n	.	(8.dn/L	.	(8.f/L	.	2.ryy	2.ryy	8.f\L	ve-	8.ddn\L	ve-	2.ryy	2.ryy	(8.dd\L	.	(8.ff\L	.
.	.	.	16e-/Jk)	.	16g/Jk)	.	.	.	16g\Jk	.	16ee-\Jk	.	.	.	16ee-\Jk)	.	16gg\Jk)	.
!	!	!	!	!	!	!	!	!	!	!	!	!	!	!	!LO:LB:g=original	!	!	!
4BB-/	.	.	4f|</	.	4a-|</	.	.	.	4a-\	-nit	4ff\	-nit	.	.	8ff|>\L	.	8aa-|>\L	.
.	.	.	.	.	.	.	.	.	.	.	.	.	.	.	8ff|>\	.	8aa-|>\	.
8r	.	.	8r	.	8r	.	.	.	8r	.	8r	.	.	.	8ff|>\	.	8aa-|>\	.
!	!	!	!LO:SIC:s=8f|	!	!LO:SIC:s=8a-|	!	!	!	!	!	!	!	!	!	!	!	!	!
8BB-/	.	.	8f/	.	8a-/	.	.	.	8a-\	qui	8ff\	qui	.	.	8ff|>\J	.	8aa-|>\J	.
!	!	!	!LO:LB:g=original	!	!	!	!	!	!	!	!	!	!	!	!	!	!	!
=53	=53	=53	=53	=53	=53	=53	=53	=53	=53	=53	=53	=53	=53	=53	=53	=53	=53	=53
4E-\	.	.	(8.e-/L	.	(8.g/L	.	2.ryy	2.ryy	8.g\L	ve-	8.ee-\L	ve-	2.ryy	2.ryy	(8.ee-\L	.	(8.gg\L	.
.	.	.	16f/Jk)	.	16a-/Jk)	.	.	.	16a-\Jk	.	16ff\Jk	.	.	.	16ff\Jk)	.	16aa-\Jk)	.
4EE-/	.	.	4g|</	.	4b-|</	.	.	.	4b-\	-nit	4gg\	-nit	.	.	8gg|>\L	.	8bb-|>\L	.
*	*	*	*	*	*	*	*	*	*	*Xij	*	*Xij	*	*	*	*	*	*
.	.	.	.	.	.	.	.	.	.	.	.	.	.	.	8gg|>\	.	8bb-|>\	.
8r	.	.	8r	.	8r	.	.	.	8r	.	8r	.	.	.	8gg|>\	.	8bb-|>\	.
!	!	!	!	!	!LO:SIC:s=8b-|	!	!	!	!	!	!	!	!	!	!	!	!	!
8E-\	.	.	8g|</	.	8b-/	.	.	.	8b-\	in	8gg\	in	.	.	8gg|>\J	.	8bb-|>\J	.
=54	=54	=54	=54	=54	=54	=54	=54	=54	=54	=54	=54	=54	=54	=54	=54	=54	=54	=54
4A-\	6	.	8f/L	.	16b-/LL	.	2.ryy	2.ryy	4a-\	no-	4ff\	no-	2.ryy	2.ryy	8aa-\L	.	4aa-\	.
.	.	.	.	.	16a-/	.	.	.	.	.	.	.	.	.	.	.	.	.
.	.	.	16a-/L	.	16cc/	.	.	.	.	.	.	.	.	.	8ff\J	.	.	.
.	.	.	16f/JJ	.	16a-/JJ	.	.	.	.	.	.	.	.	.	.	.	.	.
4B-\	4	.	4e-/	.	4g/	.	.	.	4g\	-mi-	4ee-\	-mi-	.	.	4ee-\	.	4gg\	.
4BB-/	n	.	4dn/	.	4f/	.	.	.	4f\	-ne	4ddn\	-ne	.	.	4dd\	.	4ff\	.
=55	=55	=55	=55	=55	=55	=55	=55	=55	=55	=55	=55	=55	=55	=55	=55	=55	=55	=55
4E-\	.	.	8e-/L	.	8g/L	.	2.ryy	2.ryy	8g\	Do-	8ee-\	Do-	2.ryy	2.ryy	4ee-\	.	4gg\	.
.	.	.	8g/J	.	8b-/J	.	.	.	8g\	-mi-	8ee-\	-mi-	.	.	.	.	.	.
4EE-/	.	.	4e-/	.	4g/	.	.	.	4g\	-ni	4ee-\	-ni	.	.	4ee-\	.	4gg\	.
4r	.	.	4r	.	4r	.	.	.	4r	.	8r	.	.	.	4r	.	4r	.
.	.	.	.	.	.	.	.	.	.	.	16ee-\LL	qui	.	.	.	.	.	.
.	.	.	.	.	.	.	.	.	.	.	16cc\JJ	.	.	.	.	.	.	.
!LO:LB:g=original	!	!	!	!	!	!	!	!	!	!	!	!	!	!	!	!	!	!
=56	=56	=56	=56	=56	=56	=56	=56	=56	=56	=56	=56	=56	=56	=56	=56	=56	=56	=56
8r	.	.	8r	.	8r	.	2.ryy	2.ryy	1.r	.	8b-\L	ve-	2.ryy	2.ryy	0.r	.	0.r	.
8E-\L	4nr 2	.	8c/L	.	8f/L	.	.	.	.	.	8an\J	.	.	.	.	.	.	.
8E-\	_ _	.	8c/	.	8f/	.	.	.	.	.	4a\	-nit	.	.	.	.	.	.
8E-\	.	.	8c/	.	8f/	.	.	.	.	.	.	.	.	.	.	.	.	.
8E-\	.	.	8c/	.	8f/	.	.	.	.	.	8r	.	.	.	.	.	.	.
8E-\J	x x	.	8c/J	.	8f/J	.	.	.	.	.	16a\LL	qui	.	.	.	.	.	.
.	.	.	.	.	.	.	.	.	.	.	16cc\JJ	.	.	.	.	.	.	.
!	!	!	!	!	!	!	!	!	!	!	!LO:LB:g=original	!	!	!	!	!	!	!
=57	=57	=57	=57	=57	=57	=57	=57	=57	=57	=57	=57	=57	=57	=57	=57	=57	=57	=57
8r	.	.	8r	.	8r	.	2.ryy	2.ryy	.	.	8cc\L	ve-	2.ryy	2.ryy	.	.	.	.
8Dn\L	6	.	8B-/L	.	8f/L	.	.	.	.	.	8b-\J	.	.	.	.	.	.	.
8D\	.	.	8B-/	.	8f/	.	.	.	.	.	4b-\	-nit	.	.	.	.	.	.
8D\	.	.	8B-/	.	8f/	.	.	.	.	.	.	.	.	.	.	.	.	.
8D\	.	.	8B-/	.	8f/	.	.	.	.	.	8r	.	.	.	.	.	.	.
8D\J	.	.	8B-/J	.	8f/J	.	.	.	.	.	16b-\LL	in	.	.	.	.	.	.
.	.	.	.	.	.	.	.	.	.	.	16dd-X\JJ	.	.	.	.	.	.	.
!	!	!	!	!	!LO:PB:g=original	!	!	!	!	!	!	!	!	!	!	!	!	!
=58	=58	=58	=58	=58	=58	=58	=58	=58	=58	=58	=58	=58	=58	=58	=58	=58	=58	=58
!LO:TX:t=P:problem=mixed beam	!	!	!	!	!	!	!	!	!	!	!	!	!	!	!	!	!	!
8E-\L	6	.	4c/	.	4e-/	.	2.ryy	2.ryy	2.r	.	4cc\	no-	2.ryy	2.ryy	.	.	.	.
8E-\	.	.	.	.	.	.	.	.	.	.	.	.	.	.	.	.	.	.
8F\	4	.	4B-/	.	4d-X/	.	.	.	.	.	4b-\	-mi-	.	.	.	.	.	.
8F\	.	.	.	.	.	.	.	.	.	.	.	.	.	.	.	.	.	.
8FF/	n_	.	4An/	.	4c/	.	.	.	.	.	4an\	-ne	.	.	.	.	.	.
8FF/J	_	.	.	.	.	.	.	.	.	.	.	.	.	.	.	.	.	.
!	!	!	!	!	!	!	!	!	!LO:LB:g=original	!	!	!	!	!	!	!	!	!
=59	=59	=59	=59	=59	=59	=59	=59	=59	=59	=59	=59	=59	=59	=59	=59	=59	=59	=59
4BB-/	x	.	4B-/	.	8d-/L	.	2.ryy	2.ryy	4r	.	8b-\	Do-	2.ryy	2.ryy	.	.	.	.
.	.	.	.	.	8c/J	.	.	.	.	.	8an\	-mi-	.	.	.	.	.	.
!	!	!	!	!	!	!	!	!	!	!	!	!LO:MO:mod=-ni.	!	!	!	!	!	!
8r	.	.	4B-/	.	4d-/	.	.	.	4r	.	4b-\	-ni	.	.	.	.	.	.
16BB-/LL	.	.	.	.	.	.	.	.	.	.	.	.	.	.	.	.	.	.
16AAn/JJ	.	.	.	.	.	.	.	.	.	.	.	.	.	.	.	.	.	.
8BB-/	.	.	4r	.	4r	.	.	.	8r	.	4r	.	.	.	.	.	.	.
!	!	!	!	!	!	!	!	!	!LO:SIC:s=16dd-LL	!	!	!	!	!	!	!	!	!
8r	.	.	.	.	.	.	.	.	16dd-X\LL	qui	.	.	.	.	.	.	.	.
.	.	.	.	.	.	.	.	.	16b-\JJ	.	.	.	.	.	.	.	.	.
=60	=60	=60	=60	=60	=60	=60	=60	=60	=60	=60	=60	=60	=60	=60	=60	=60	=60	=60
!	!	!	!	!	!	!	!	!	!LO:SIC:s=8a-L	!	!	!	!	!	!	!	!	!
8r	.	.	8r	.	8r	.	2.ryy	2.ryy	8a-X\L	ve-	1.r	.	2.ryy	2.ryy	1.r	.	1.r	.
8D-/L	4 2	.	8B-/L	.	8e-/L	.	.	.	8g\J	.	.	.	.	.	.	.	.	.
8D-/	_ _	.	8B-/	.	8e-/	.	.	.	4g\	-nit	.	.	.	.	.	.	.	.
8D-/	.	.	8B-/	.	8e-/	.	.	.	.	.	.	.	.	.	.	.	.	.
8D-/	.	.	8B-/	.	8e-/	.	.	.	8r	.	.	.	.	.	.	.	.	.
8D-/J	x x	.	8B-/J	.	8e-/J	.	.	.	16g\LL	qui	.	.	.	.	.	.	.	.
.	.	.	.	.	.	.	.	.	16b-\JJ	.	.	.	.	.	.	.	.	.
!	!	!	!LO:LB:g=original	!	!	!	!	!	!	!	!	!	!	!	!	!	!	!
=61	=61	=61	=61	=61	=61	=61	=61	=61	=61	=61	=61	=61	=61	=61	=61	=61	=61	=61
8r	.	.	8r	.	8r	.	2.ryy	2.ryy	8b-\L	ve-	.	.	2.ryy	2.ryy	.	.	.	.
8C/L	6	.	8A-/L	.	8e-/L	.	.	.	8a-\J	.	.	.	.	.	.	.	.	.
8C/	_	.	8A-/	.	8e-/	.	.	.	4a-\	-nit	.	.	.	.	.	.	.	.
8C/	.	.	8A-/	.	8e-/	.	.	.	.	.	.	.	.	.	.	.	.	.
8C/	.	.	8A-/	.	8e-/	.	.	.	8r	.	.	.	.	.	.	.	.	.
8C/J	x	.	8A-/J	.	8e-/J	.	.	.	16a-\LL	in	.	.	.	.	.	.	.	.
.	.	.	.	.	.	.	.	.	16cc\JJ	.	.	.	.	.	.	.	.	.
=62	=62	=62	=62	=62	=62	=62	=62	=62	=62	=62	=62	=62	=62	=62	=62	=62	=62	=62
!LO:TX:t=P:problem=mixed beam	!	!	!	!	!	!	!	!	!	!	!	!	!	!	!	!	!	!
8D-\L	6	.	4B-/	.	4d-/	.	2.ryy	2.ryy	4b-\	no-	2.r	.	2.ryy	2.ryy	2.r	.	2.r	.
8D-\	.	.	.	.	.	.	.	.	.	.	.	.	.	.	.	.	.	.
!	!	!	!LO:SIC:s=4A-	!	!	!	!	!	!	!	!	!	!	!	!	!	!	!
8E-\	4	.	4A-X/	.	4c/	.	.	.	4a-\	-mi-	.	.	.	.	.	.	.	.
8E-\	.	.	.	.	.	.	.	.	.	.	.	.	.	.	.	.	.	.
8EE-/	3	.	4G/	.	4B-/	.	.	.	4g\	-ne	.	.	.	.	.	.	.	.
8EE-/J	.	.	.	.	.	.	.	.	.	.	.	.	.	.	.	.	.	.
!LO:LB:g=original	!	!	!	!	!	!	!	!	!	!	!	!	!	!	!	!	!	!
=63	=63	=63	=63	=63	=63	=63	=63	=63	=63	=63	=63	=63	=63	=63	=63	=63	=63	=63
4AA-/	.	.	4A-/	.	8c/L	.	2.ryy	2.ryy	8a-\	Do-	4r	.	2.ryy	2.ryy	4r	.	4r	.
.	.	.	.	.	8B-/J	.	.	.	8g\	-mi-	.	.	.	.	.	.	.	.
4AA-/	.	.	4A-/	.	4c/	.	.	.	4a-\	-ni	4r	.	.	.	8r	.	8r	.
.	.	.	.	.	.	.	.	.	.	.	.	.	.	.	(8cc\L	.	(8ee-\L	.
8r	.	.	8r	.	8r	.	.	.	8r	.	8r	.	.	.	8b-\	.	8dd-X\	.
8A-\	.	.	8A-/	.	8c/	.	.	.	8a-\	qui	8cc\	qui	.	.	8a-\J)	.	8cc\J)	.
!	!	!	!	!	!	!	!	!	!	!	!	!	!	!	!	!	!LO:LB:g=original	!
=64	=64	=64	=64	=64	=64	=64	=64	=64	=64	=64	=64	=64	=64	=64	=64	=64	=64	=64
!	!	!	!	!	!	!	!	!	!	!	!	!	!	!	!	!	!LO:SIC:s=4cc	!
4E-\	4	.	4A-/	.	4c/	.	2.ryy	2.ryy	4a-\	ve-	4cc\	ve-	2.ryy	2.ryy	4a-/	.	(4cc\	.
!	!	!	!	!	!	!	!	!	!	!	!LO:SIC:v:s=4b-\	!	!	!	!LO:SIC:s=(16gLL	!	!LO:SIC:s=(16b-LL	!
4EE-/	3	.	4G/	.	4B-/	.	.	.	4g\	-nit	4a-\	-nit	.	.	16g/LL	.	16b-\LL)	.
!	!	!	!	!	!	!	!	!	!	!	!	!	!	!	!	!	!LO:SIC:s=16a-	!
.	.	.	.	.	.	.	.	.	.	.	.	.	.	.	16f/	.	(16a-\	.
.	.	.	.	.	.	.	.	.	.	.	.	.	.	.	16g/	.	16b-\	.
!	!	!	!	!	!	!	!	!	!	!	!	!	!	!	!LO:SIC:s=16a-JJ)	!	!	!
.	.	.	.	.	.	.	.	.	.	.	.	.	.	.	16a-/JJ	.	16cc\JJ)	.
8r	.	.	8r	.	8r	.	.	.	8r	.	8r	.	.	.	8b-\L	.	8dd-|>\L	.
*	*	*	*	*	*	*	*	*	*	*	*	*ij	*	*	*	*	*	*
8E-\	.	.	8B-/	.	8d-/	.	.	.	8b-\	qui	8dd-\	qui	.	.	8b-\J	.	8dd-|>\J	.
!	!	!	!	!	!	!	!	!	!LO:LB:g=original	!	!	!	!	!	!LO:LB:g=original	!	!	!
=65	=65	=65	=65	=65	=65	=65	=65	=65	=65	=65	=65	=65	=65	=65	=65	=65	=65	=65
!	!	!	!	!	!	!	!	!	!	!	!	!	!	!	!	!	!LO:SIC:s=4dd-	!
4A-\	4	.	4B-/	.	4d-/	.	2.ryy	2.ryy	4b-\	ve-	4dd-\	ve-	2.ryy	2.ryy	4b-\	.	(4dd-\	.
!	!	!	!	!	!	!	!	!	!	!	!	!	!	!	!LO:SIC:s=(16a-LL	!	!LO:SIC:s=(16ccLL	!
4AA-/	3	.	4A-/	.	4c/	.	.	.	4a-\	-nit	4cc\	-nit	.	.	16a-\LL	.	16cc\LL)	.
*	*	*	*	*	*	*	*	*	*	*	*	*Xij	*	*	*	*	*	*
!	!	!	!	!	!	!	!	!	!	!	!	!	!	!	!	!	!LO:SIC:s=16b-	!
.	.	.	.	.	.	.	.	.	.	.	.	.	.	.	16g\	.	(16b-\	.
.	.	.	.	.	.	.	.	.	.	.	.	.	.	.	16a-\	.	16cc\)	.
!	!	!	!	!	!	!	!	!	!	!	!	!	!	!	!LO:SIC:s=16b-JJ)	!	!LO:SIC:s=16dd-JJ)	!
.	.	.	.	.	.	.	.	.	.	.	.	.	.	.	16b-\JJ	.	16dd-\JJ	.
!	!	!	!	!	!	!	!	!	!	!	!	!	!	!	!LO:SIC:s=8cc|L	!	!	!
8r	.	.	8r	.	8r	.	.	.	8r	.	8r	.	.	.	8cc\L	.	8ee-|>\L	.
!	!	!	!	!	!	!	!	!	!	!	!	!	!	!	!LO:SIC:s=8cc|J	!	!	!
8A-\	.	.	8c/	.	8e-/	.	.	.	8cc\	in	8ee-\	in	.	.	8cc\J	.	8ee-|>\J	.
!	!	!	!	!	!LO:LB:g=original	!	!	!	!	!	!LO:LB:g=original	!	!	!	!	!	!	!
=66	=66	=66	=66	=66	=66	=66	=66	=66	=66	=66	=66	=66	=66	=66	=66	=66	=66	=66
4D-\	6_	.	(8d-/L	.	(8f/L	.	2.ryy	2.ryy	8dd-\L	no-	8ff\L	no-	2.ryy	2.ryy	(8dd-\L	.	(8ff\L	.
.	.	.	8c/)	.	8e-/)	.	.	.	8cc\J	.	8ee-\J	.	.	.	8cc\)	.	8ee-\)	.
4D-\	.	.	(8c/	.	(8e-/	.	.	.	8cc\L	-mi-	8ee-\L	-mi-	.	.	(8cc\	.	(8ee-\	.
.	.	.	8B-/)	.	8d-/)	.	.	.	8b-\J	.	8dd-\J	.	.	.	8b-\)	.	8dd-\)	.
4Dn\	5	.	(8B-/	.	(8d-/	.	.	.	8b-\L	-ne	8dd-\L	-ne	.	.	(8b-\	.	(8dd-\	.
.	.	.	8A-/J)	.	8c/J)	.	.	.	8a-\J	.	8cc\J	.	.	.	8a-\J)	.	8cc\J)	.
=67	=67	=67	=67	=67	=67	=67	=67	=67	=67	=67	=67	=67	=67	=67	=67	=67	=67	=67
!LO:TX:t=P:problem=mixed beam	!	!	!	!	!	!	!	!	!	!	!	!	!	!	!	!	!	!
8E-\L	4	.	(8.A-/L	.	(8.c/L	.	2.ryy	2.ryy	8.a-\	Do-	8.cc\	Do-	2.ryy	2.ryy	8.a-/L	.	8.cc\L	.
8EE-/J	3	.	.	.	.	.	.	.	.	.	.	.	.	.	.	.	.	.
.	.	.	32G/LL	.	32B-/LL	.	.	.	32g\LLL	-mi-	32b-\LLL	-mi-	.	.	32g/LL	.	32b-\LL	.
.	.	.	32A-/JJJ)	.	32c/JJJ)	.	.	.	32a-\JJJ	.	32cc\JJJ	.	.	.	32a-/JJJ	.	32cc\JJJ	.
!	!	!	!	!	!LO:SIC:s=4B-|	!	!	!	!	!LO:MO:mod=-ni.	!	!LO:MO:mod=-ni.	!	!	!	!	!	!
8E-\L	.	.	4G|</	.	4B-/	.	.	.	4g\	-ni	4b-\	-ni	.	.	4g/	.	4b-\	.
8D-X\	.	.	.	.	.	.	.	.	.	.	.	.	.	.	.	.	.	.
8C\	.	.	4r	.	4r	.	.	.	4r	.	4r	.	.	.	4r	.	4r	.
8BB-\J	.	.	.	.	.	.	.	.	.	.	.	.	.	.	.	.	.	.
=68	=68	=68	=68	=68	=68	=68	=68	=68	=68	=68	=68	=68	=68	=68	=68	=68	=68	=68
!LO:TX:t=P:problem=mixed beam	!	!	!	!	!	!	!	!	!	!	!	!	!	!	!	!	!	!
8AA-/L	.	.	2c/	.	2e-/	.	2.ryy	2.ryy	(>2e-\	Be-	(>2cc\	Be-	2.ryy	2.ryy	0.r	.	0.r	.
8A-\	.	.	.	.	.	.	.	.	.	.	.	.	.	.	.	.	.	.
8A-\	.	.	.	.	.	.	.	.	.	.	.	.	.	.	.	.	.	.
8A-\	.	.	.	.	.	.	.	.	.	.	.	.	.	.	.	.	.	.
!	!	!	!	!	!	!	!	!	!LO:SIC:s=16fLL	!	!LO:SIC:s=16dd-LL	!	!	!	!	!	!	!
8A-\	6 4	.	16d-/LL	.	16f/LL	.	.	.	16f\LL)	.	16dd-\LL)	.	.	.	.	.	.	.
!	!	!	!	!	!	!	!	!	!LO:SIC:s=16gJJ)	!	!LO:SIC:s=16ee-JJ)	!	!	!	!	!	!	!
.	.	.	16e-/	.	16g/	.	.	.	16g\JJ	.	16ee-\JJ	.	.	.	.	.	.	.
8A-\J	_ _	.	16f/	.	16a-/	.	.	.	16a-\LL	-ne-	16ff\LL	-ne-	.	.	.	.	.	.
.	.	.	16d-/JJ	.	16f/JJ	.	.	.	16f\JJ	.	16dd-\JJ	.	.	.	.	.	.	.
=69	=69	=69	=69	=69	=69	=69	=69	=69	=69	=69	=69	=69	=69	=69	=69	=69	=69	=69
*tremolo	*	*	*	*	*	*	*	*	*	*	*	*	*	*	*	*	*	*
8A-\L	3_	.	8d-/L	.	8f/L	.	2.ryy	2.ryy	8f\L	-di-	8dd-\L	-di-	2.ryy	2.ryy	.	.	.	.
8A-\	.	.	8c/J	.	8e-/J	.	.	.	8e-\J	.	8cc\J	.	.	.	.	.	.	.
!	!	!	!LO:LB:g=original	!	!	!	!	!	!	!	!	!	!	!	!	!	!	!
8A-\	.	.	4c/	.	4.e-/	.	.	.	4.e-\	-ctus	4.cc\	-ctus	.	.	.	.	.	.
8A-\	.	.	.	.	.	.	.	.	.	.	.	.	.	.	.	.	.	.
8A-\	x	.	4c/	.	.	.	.	.	.	.	.	.	.	.	.	.	.	.
8A-\J	.	.	.	.	8a-/	.	.	.	8a-\	qui	8cc\	qui	.	.	.	.	.	.
*Xtremolo	*	*	*	*	*	*	*	*	*	*	*	*	*	*	*	*	*	*
=70	=70	=70	=70	=70	=70	=70	=70	=70	=70	=70	=70	=70	=70	=70	=70	=70	=70	=70
!LO:TX:t=P:problem=mixed beam	!	!	!	!	!	!	!	!	!	!	!	!	!	!	!	!	!	!
8D-\L	6	.	(16e-/LL	.	(16g/LL	.	2.ryy	2.ryy	16g\LL	ve-	16ee-\LL	ve-	2.ryy	2.ryy	.	.	.	.
!	!	!	!LO:SIC:s=16d-)	!	!	!	!	!	!	!	!	!	!	!	!	!	!	!
.	.	.	16d-/	.	16f/)	.	.	.	16f\	.	16dd-\	.	.	.	.	.	.	.
!	!	!	!LO:SIC:s=(16c	!	!	!	!	!	!	!	!	!	!	!	!	!	!	!
8D-\	.	.	16c/	.	(16e-/	.	.	.	16e-\	.	16cc\	.	.	.	.	.	.	.
.	.	.	16d-/JJ)	.	16f/JJ)	.	.	.	16f\JJ	.	16dd-\JJ	.	.	.	.	.	.	.
8E-\	4	.	(8c/L	.	(8e-/L	.	.	.	4e-\	-nit	4cc\	-nit	.	.	.	.	.	.
8E-\	.	.	8A-/)	.	8c/)	.	.	.	.	.	.	.	.	.	.	.	.	.
8EE-/	3	.	(8G/	.	(8B-/	.	.	.	4d-\	qui	4b-\	qui	.	.	.	.	.	.
*custos:AA-	*	*	*	*	*	*	*	*	*	*	*	*	*	*	*	*	*	*
8EE-/J	.	.	8B-/J)	.	8d-/J)	.	.	.	.	.	.	.	.	.	.	.	.	.
!LO:PB:g=original	!	!	!	!	!	!	!	!	!LO:LB:g=original	!	!	!	!	!	!	!	!	!
=71	=71	=71	=71	=71	=71	=71	=71	=71	=71	=71	=71	=71	=71	=71	=71	=71	=71	=71
!LO:TX:t=P:problem=mixed beam	!	!	!LO:MO:mod=(8.B-L	!	!	!	!	!	!	!	!	!	!	!	!	!	!	!
8AA-/L	.	.	(8B-/L	.	(8.d-/L	.	2.ryy	2.ryy	8d-\L	ve-	8b-\L	ve-	2.ryy	2.ryy	.	.	.	.
!	!	!	!LO:MO:mod=.	!	!	!	!	!	!	!	!	!	!	!	!	!	!	!
8A-\J	.	.	16A-/L	.	.	.	.	.	16c\L	.	16a-\L	.	.	.	.	.	.	.
!	!	!	!LO:MO:mod=32A-LL	!	!	!	!	!	!	!	!	!	!	!	!	!	!	!
.	.	.	16B-/JJ)	.	32c/LL	.	.	.	16d-\JJ	.	16b-\JJ	.	.	.	.	.	.	.
!	!	!	!LO:MO:null:mod=32B-JJJ)	!	!	!	!	!	!	!	!	!	!	!	!	!	!	!
.	.	.	.	.	32d-/JJJ)	.	.	.	.	.	.	.	.	.	.	.	.	.
!	!	!	!LO:SIC:s=4A-|	!	!	!	!	!	!	!	!	!	!	!	!	!	!	!
4AA-/	.	.	4A-/	.	4c|</	.	.	.	4c\	-nit	4a-\	-nit	.	.	.	.	.	.
4r	.	.	4r	.	4r	.	.	.	4e-\	qui	4cc\	qui	.	.	.	.	.	.
!	!	!	!	!	!	!	!	!	!	!	!LO:LB:g=original	!	!	!	!	!	!	!
=72	=72	=72	=72	=72	=72	=72	=72	=72	=72	=72	=72	=72	=72	=72	=72	=72	=72	=72
4A-\	.	.	4c/	.	4e-/	.	2.ryy	2.ryy	4e-\	ve-	4cc\	ve-	2.ryy	2.ryy	2.r	.	2.r	.
4A-\	.	.	4c/	.	4e-/	.	.	.	16dn\LL	.	16b-\LL	.	.	.	.	.	.	.
.	.	.	.	.	.	.	.	.	16e-\	.	16cc\	.	.	.	.	.	.	.
.	.	.	.	.	.	.	.	.	16d\	.	16b-\	.	.	.	.	.	.	.
.	.	.	.	.	.	.	.	.	16e-\JJ	.	16cc\JJ	.	.	.	.	.	.	.
4r	.	.	4r	.	4r	.	.	.	16a-\LL	.	16ff\LL	.	.	.	.	.	.	.
.	.	.	.	.	.	.	.	.	16g\	.	16ee-\	.	.	.	.	.	.	.
.	.	.	.	.	.	.	.	.	16f\	.	16dd-\	.	.	.	.	.	.	.
.	.	.	.	.	.	.	.	.	16e-\JJ	.	16cc\JJ	.	.	.	.	.	.	.
=73	=73	=73	=73	=73	=73	=73	=73	=73	=73	=73	=73	=73	=73	=73	=73	=73	=73	=73
4A-\	6 4	.	4d-/	.	4f/	.	2.ryy	2.ryy	4f\	-nit	4dd-\	-nit	2.ryy	2.ryy	8r	.	8r	.
.	.	.	.	.	.	.	.	.	.	.	.	.	.	.	8dd-|>\L	.	8ff|\L	.
4A-\	.	.	4d-/	.	4f/	.	.	.	4r	.	4r	.	.	.	8cc|>\	.	8aa-|\	.
.	.	.	.	.	.	.	.	.	.	.	.	.	.	.	8b-|>\	.	8gg|\	.
4r	.	.	4r	.	4r	.	.	.	4r	.	4r	.	.	.	8a-|>\	.	8ff|\	.
.	.	.	.	.	.	.	.	.	.	.	.	.	.	.	8g|>\J	.	8ee-|\J	.
!	!	!	!	!	!LO:LB:g=original	!	!	!	!	!	!	!	!	!	!	!	!	!
=74	=74	=74	=74	=74	=74	=74	=74	=74	=74	=74	=74	=74	=74	=74	=74	=74	=74	=74
4A-\	_ _	.	4d-/	.	4f/	.	2.ryy	2.ryy	4f\	qui	4dd-\	qui	2.ryy	2.ryy	4f|</	.	4dd-|>\	.
4A-\	x x	.	4d-/	.	4f/	.	.	.	16e-\LL	ve-	16cc\LL	ve-	.	.	4r	.	4r	.
.	.	.	.	.	.	.	.	.	16f\	.	16dd-\	.	.	.	.	.	.	.
.	.	.	.	.	.	.	.	.	16e-\	.	16cc\	.	.	.	.	.	.	.
.	.	.	.	.	.	.	.	.	16f\JJ	.	16dd-\JJ	.	.	.	.	.	.	.
4r	.	.	4r	.	4r	.	.	.	16b-\LL	.	16gg\LL	.	.	.	4r	.	4r	.
.	.	.	.	.	.	.	.	.	16a-\	.	16ff\	.	.	.	.	.	.	.
.	.	.	.	.	.	.	.	.	16g\	.	16ee-\	.	.	.	.	.	.	.
.	.	.	.	.	.	.	.	.	16f\JJ	.	16dd-\JJ	.	.	.	.	.	.	.
!	!	!	!	!	!	!	!	!	!	!	!	!	!	!	!	!	!LO:LB:g=original	!
=75	=75	=75	=75	=75	=75	=75	=75	=75	=75	=75	=75	=75	=75	=75	=75	=75	=75	=75
4A-\	3	.	4c/	.	4e-/	.	2.ryy	2.ryy	4e-\	-nit	4cc\	-nit	2.ryy	2.ryy	8r	.	8r	.
.	.	.	.	.	.	.	.	.	.	.	.	.	.	.	8cc|>\L	.	8aa-|\L	.
4A-\	.	.	4c/	.	4e-/	.	.	.	4r	.	4r	.	.	.	8ee-|>\	.	8gg|\	.
.	.	.	.	.	.	.	.	.	.	.	.	.	.	.	8dd-|>\	.	8ff|\	.
4r	.	.	4r	.	4r	.	.	.	4r	.	4r	.	.	.	8cc|>\	.	8ee-|\	.
.	.	.	.	.	.	.	.	.	.	.	.	.	.	.	8b-|>\J	.	8dd-|\J	.
!	!	!	!	!	!	!	!	!	!	!	!	!	!	!	!LO:LB:g=original	!	!	!
=76	=76	=76	=76	=76	=76	=76	=76	=76	=76	=76	=76	=76	=76	=76	=76	=76	=76	=76
4A-\	_	.	4c/	.	4e-/	.	2.ryy	2.ryy	4e-\	qui	4cc\	qui	2.ryy	2.ryy	4a-\	.	4cc|>\	.
4A-\	.	.	4c/	.	4e-/	.	.	.	16c\LL	ve-	16a-\LL	ve-	.	.	4r	.	4r	.
.	.	.	.	.	.	.	.	.	16B-\	.	16g\	.	.	.	.	.	.	.
.	.	.	.	.	.	.	.	.	16c\	.	16a-\	.	.	.	.	.	.	.
.	.	.	.	.	.	.	.	.	16d-\JJ	.	16b-\JJ	.	.	.	.	.	.	.
4r	x	.	4r	.	4r	.	.	.	16e-\LL	.	16cc\LL	.	.	.	4r	.	4r	.
.	.	.	.	.	.	.	.	.	16f\	.	16dd-\	.	.	.	.	.	.	.
.	.	.	.	.	.	.	.	.	16g\	.	16ee-\	.	.	.	.	.	.	.
.	.	.	.	.	.	.	.	.	16a-\JJ	.	16cc\JJ	.	.	.	.	.	.	.
=77	=77	=77	=77	=77	=77	=77	=77	=77	=77	=77	=77	=77	=77	=77	=77	=77	=77	=77
2.E-\	.	.	2.B-/	.	2.d-/	.	2.ryy	2.ryy	4g\	-nit	4b-\	-nit	2.ryy	2.ryy	8gg|>\L	.	8bb-|\L	.
.	.	.	.	.	.	.	.	.	.	.	.	.	.	.	8ff|>\	.	8aa-|\	.
.	.	.	.	.	.	.	.	.	4r	.	4r	.	.	.	8ee-|>\	.	8gg|\	.
.	.	.	.	.	.	.	.	.	.	.	.	.	.	.	8dd-|>\	.	8ff|\	.
.	.	.	.	.	.	.	.	.	4r	.	4r	.	.	.	8cc|>\	.	8ee-|\	.
.	.	.	.	.	.	.	.	.	.	.	.	.	.	.	8b-|>\J	.	8dd-|\J	.
!	!	!	!	!	!	!	!	!	!LO:PB:g=original	!	!	!	!	!	!	!	!	!
=78	=78	=78	=78	=78	=78	=78	=78	=78	=78	=78	=78	=78	=78	=78	=78	=78	=78	=78
4AA-/	.	.	4A-/	.	4c/	.	2.ryy	2.ryy	8c\L	qui	8a-\L	qui	2.ryy	2.ryy	4a-|>\	.	4cc|\	.
.	.	.	.	.	.	.	.	.	8d-\J	.	8b-\J	.	.	.	.	.	.	.
!	!	!	!	!	!	!	!	!	!	!	!LO:LB:g=original	!	!	!	!	!	!	!
4r	.	.	4r	.	4r	.	.	.	8e-\L	ve-	8cc\L	ve-	.	.	4r	.	4r	.
.	.	.	.	.	.	.	.	.	8f\	.	8dd-\	.	.	.	.	.	.	.
4r	.	.	4r	.	4r	.	.	.	8g\	.	8ee-\	.	.	.	4r	.	4r	.
.	.	.	.	.	.	.	.	.	8a-\J	.	8cc\J	.	.	.	.	.	.	.
!	!	!	!LO:LB:g=original	!	!	!	!	!	!	!	!	!	!	!	!	!	!	!
=79	=79	=79	=79	=79	=79	=79	=79	=79	=79	=79	=79	=79	=79	=79	=79	=79	=79	=79
!	!	!	!	!	!	!	!	!	!	!	!	!	!	!	!	!	!LO:MO:mod=*null:null	!
*	*	*	*	*	*	*	*	*	*	*	*	*	*	*	*	*	*2\right	*
4D-\	6	.	2B-/	.	4f/	.	2.ryy	2.ryy	8b-\L	.	8dd-\L	.	2.ryy	2.ryy	4f/	.	2b-\	.
.	.	.	.	.	.	.	.	.	8dd-\	.	8ff\	.	.	.	.	.	.	.
4E-\	.	.	.	.	4g/	.	.	.	8g\	.	8b-\	.	.	.	4g/	.	.	.
.	.	.	.	.	.	.	.	.	8b-\J	.	8dd-\J	.	.	.	.	.	.	.
4AA-/	.	.	4c/	.	4a-/	.	.	.	4a-\	-nit	4cc\	-nit	.	.	4a-/	.	4cc\	.
=80	=80	=80	=80	=80	=80	=80	=80	=80	=80	=80	=80	=80	=80	=80	=80	=80	=80	=80
4D-\	.	.	4f/	.	4a-/	.	2.ryy	2.ryy	8.f\L	in	8.dd-\L	in	2.ryy	2.ryy	4a-/	.	4ff\	.
.	.	.	.	.	.	.	.	.	16g\Jk	.	16ee-\Jk	.	.	.	.	.	.	.
4D-\	.	.	4f/	.	4a-/	.	.	.	16f\LL	no-	16dd-\LL	no-	.	.	4a-/	.	4ff\	.
.	.	.	.	.	.	.	.	.	16e-\	.	16cc\	.	.	.	.	.	.	.
.	.	.	.	.	.	.	.	.	16f\	.	16dd-\	.	.	.	.	.	.	.
.	.	.	.	.	.	.	.	.	16e-\JJ	.	16cc\JJ	.	.	.	.	.	.	.
4r	.	.	4r	.	4r	.	.	.	16f\LL	.	16dd-\LL	.	.	.	4r	.	4r	.
.	.	.	.	.	.	.	.	.	16g\	.	16ee-\	.	.	.	.	.	.	.
.	.	.	.	.	.	.	.	.	16a-\	.	16ff\	.	.	.	.	.	.	.
.	.	.	.	.	.	.	.	.	16f\JJ	.	16dd-\JJ	.	.	.	.	.	.	.
=81	=81	=81	=81	=81	=81	=81	=81	=81	=81	=81	=81	=81	=81	=81	=81	=81	=81	=81
4C/	6	.	4e-/	.	4a-/	.	2.ryy	2.ryy	16e-\LL	.	16cc\LL	.	2.ryy	2.ryy	4a-/	.	4ee-\	.
.	.	.	.	.	.	.	.	.	16f\	.	16dd-\	.	.	.	.	.	.	.
.	.	.	.	.	.	.	.	.	16e-\	.	16cc\	.	.	.	.	.	.	.
.	.	.	.	.	.	.	.	.	16d-\JJ	.	16b-\JJ	.	.	.	.	.	.	.
4C/	.	.	4e-/	.	4a-/	.	.	.	16c\LL	.	16a-\LL	.	.	.	4a-/	.	4ee-\	.
.	.	.	.	.	.	.	.	.	16d-\	.	16b-\	.	.	.	.	.	.	.
.	.	.	.	.	.	.	.	.	16e-\	.	16cc\	.	.	.	.	.	.	.
.	.	.	.	.	.	.	.	.	16f\JJ	.	16dd-\JJ	.	.	.	.	.	.	.
4r	.	.	4r	.	4r	.	.	.	16g\LL	.	16ee-\LL	.	.	.	4r	.	4r	.
.	.	.	.	.	.	.	.	.	16a-\	.	16ff\	.	.	.	.	.	.	.
.	.	.	.	.	.	.	.	.	16b-\	.	16gg\	.	.	.	.	.	.	.
.	.	.	.	.	.	.	.	.	16cc\JJ	.	16aa-\JJ	.	.	.	.	.	.	.
!LO:LB:g=original	!	!	!	!	!	!	!	!	!	!	!	!	!	!	!	!	!	!
=82	=82	=82	=82	=82	=82	=82	=82	=82	=82	=82	=82	=82	=82	=82	=82	=82	=82	=82
4D-\	6	.	4d-/	.	4b-/	.	2.ryy	2.ryy	8dd-\	.	8ff\	.	2.ryy	2.ryy	4b-/	.	4dd-\	.
.	.	.	.	.	.	.	.	.	16cc\	-mi-	16ee-\	-mi-	.	.	.	.	.	.
.	.	.	.	.	.	.	.	.	16b-\	-ne	16dd-\	-ne	.	.	.	.	.	.
!	!	!	!	!	!	!	!	!	!LO:LB:g=original	!	!	!	!	!	!	!	!	!
4E-\	4	.	4c/	.	4a-/	.	.	.	4a-\	Do-	4cc\	Do-	.	.	4a-/	.	4cc\	.
4EE-/	3	.	4B-/	.	4g/	.	.	.	4g\	-mi-	4b-\	-mi-	.	.	4g/	.	4b-\	.
!	!	!	!	!	!	!	!	!	!	!	!	!	!	!	!	!	!LO:LB:g=original	!
=83	=83	=83	=83	=83	=83	=83	=83	=83	=83	=83	=83	=83	=83	=83	=83	=83	=83	=83
.	.	.	.	.	16qqe-/	.	.	.	.	.	.	.	.	.	.	.	.	.
!	!	!LO:DY:a:t=f.:mod=%s	!	!LO:DY:a:t=for:mod=%s	!	!LO:DY:a:t=for.:mod=%s	!	!	!	!LO:MO:mod=-ni.	!	!LO:MO:mod=-ni.	!	!	!	!LO:MO:null:mod=f	!	!LO:DY:a:t=f.:mod=%s
4AA-/	.	f	8e-|</L	f	8cc\L	f	2.ryy	2.ryy	4a-\	-ni	4cc\	-ni	2.ryy	2.ryy	4a-/	.	8dd-\L	f
.	.	.	8a-|</	.	16b-\L	.	.	.	.	.	.	.	.	.	.	.	8cc\J	.
.	.	.	.	.	16cc\JJ	.	.	.	.	.	.	.	.	.	.	.	.	.
4A-\	.	.	8c|</	.	(4.ee-\	.	.	.	4r	.	4r	.	.	.	4a-/	.	4cc\	.
.	.	.	8a-|</	.	.	.	.	.	.	.	.	.	.	.	.	.	.	.
4AA-/	.	.	8e-|</	.	.	.	.	.	4r	.	4r	.	.	.	4r	.	4r	.
.	.	.	8a-|</J	.	16dd-\LL	.	.	.	.	.	.	.	.	.	.	.	.	.
.	.	.	.	.	16cc\JJ)	.	.	.	.	.	.	.	.	.	.	.	.	.
!	!	!	!	!	!LO:LB:g=original	!	!	!	!	!	!	!	!	!	!LO:LB:g=original	!	!	!
=84	=84	=84	=84	=84	=84	=84	=84	=84	=84	=84	=84	=84	=84	=84	=84	=84	=84	=84
!	!	!	!	!	!	!	!	!	!	!	!	!	!	!	!	!LO:DY:a:t=f.:rj:mod= 	!	!
4r	.	.	8e-|</L	.	(16ee-\LL	.	2.ryy	2.ryy	0.r	.	0.r	.	2.ryy	2.ryy	8g/L	f	8b-\L	.
.	.	.	.	.	16dd-\	.	.	.	.	.	.	.	.	.	.	.	.	.
.	.	.	8g|</	.	16cc\	.	.	.	.	.	.	.	.	.	16f/L	.	16a-\L	.
.	.	.	.	.	16dd-\JJ)	.	.	.	.	.	.	.	.	.	16g/JJ	.	16b-\JJ	.
4E-\	.	.	8B-|</	.	4b-\	.	.	.	.	.	.	.	.	.	4.b-\	.	4.dd-\	.
.	.	.	8g|</	.	.	.	.	.	.	.	.	.	.	.	.	.	.	.
4EE-/	.	.	8e-|</	.	8r	.	.	.	.	.	.	.	.	.	.	.	.	.
.	.	.	8g|</J	.	8b-\	.	.	.	.	.	.	.	.	.	16cc\LL	.	16ee-\LL	.
.	.	.	.	.	.	.	.	.	.	.	.	.	.	.	16b-\JJ	.	16dd-\JJ	.
=85	=85	=85	=85	=85	=85	=85	=85	=85	=85	=85	=85	=85	=85	=85	=85	=85	=85	=85
.	.	.	.	.	16qqdd-/	.	.	.	.	.	.	.	.	.	.	.	.	.
4r	.	.	8e-|</L	.	8cc\L	.	2.ryy	2.ryy	.	.	.	.	2.ryy	2.ryy	8b-\L	.	8dd-\L	.
.	.	.	8a-|</	.	16b-\L	.	.	.	.	.	.	.	.	.	8a-\J	.	8cc\J	.
.	.	.	.	.	16cc\JJ	.	.	.	.	.	.	.	.	.	.	.	.	.
4AA-/	.	.	8c|</	.	(4.ee-\	.	.	.	.	.	.	.	.	.	4a-\	.	4cc\	.
.	.	.	8a-|</	.	.	.	.	.	.	.	.	.	.	.	.	.	.	.
4A-\	.	.	8e-|</	.	.	.	.	.	.	.	.	.	.	.	4r	.	4r	.
.	.	.	8a-|</J	.	16dd-\LL	.	.	.	.	.	.	.	.	.	.	.	.	.
.	.	.	.	.	16cc\JJ)	.	.	.	.	.	.	.	.	.	.	.	.	.
=86	=86	=86	=86	=86	=86	=86	=86	=86	=86	=86	=86	=86	=86	=86	=86	=86	=86	=86
4r	.	.	8e-|</L	.	16ee-\LL	.	2.ryy	2.ryy	.	.	.	.	2.ryy	2.ryy	8g/L	.	8b-\L	.
.	.	.	.	.	(16dd-\	.	.	.	.	.	.	.	.	.	.	.	.	.
.	.	.	8g|</	.	16cc\	.	.	.	.	.	.	.	.	.	16f/L	.	16a-\L	.
.	.	.	.	.	16dd-\JJ)	.	.	.	.	.	.	.	.	.	16g/JJ	.	16b-\JJ	.
4E-\	.	.	8B-|</	.	4b-\	.	.	.	.	.	.	.	.	.	4.b-\	.	4.dd-\	.
.	.	.	8g|</	.	.	.	.	.	.	.	.	.	.	.	.	.	.	.
4EE-/	.	.	8e-|</	.	8r	.	.	.	.	.	.	.	.	.	.	.	.	.
.	.	.	8g|</J	.	8b-\	.	.	.	.	.	.	.	.	.	16cc\LL	.	16ee-\LL	.
.	.	.	.	.	.	.	.	.	.	.	.	.	.	.	16b-\JJ	.	16dd-\JJ	.
=87	=87	=87	=87	=87	=87	=87	=87	=87	=87	=87	=87	=87	=87	=87	=87	=87	=87	=87
4AA-/	.	.	(8.a-/L	.	(8.cc\L	.	2.ryy	2.ryy	.	.	.	.	2.ryy	2.ryy	4a-\	.	4cc\	.
.	.	.	16g/Jk)	.	16b-\Jk)	.	.	.	.	.	.	.	.	.	.	.	.	.
!	!	!	!LO:LB:g=original	!	!	!	!	!	!	!	!	!	!	!	!	!	!	!
4r	.	.	8a-|</L	.	8cc|>\L	.	.	.	.	.	.	.	.	.	4r	.	4r	.
.	.	.	8b-|</	.	8dd-|>\	.	.	.	.	.	.	.	.	.	.	.	.	.
4r	.	.	8cc|</	.	8ee-|>\	.	.	.	.	.	.	.	.	.	4r	.	4r	.
.	.	.	8a-|</J	.	8cc|>\J	.	.	.	.	.	.	.	.	.	.	.	.	.
=88	=88	=88	=88	=88	=88	=88	=88	=88	=88	=88	=88	=88	=88	=88	=88	=88	=88	=88
4r	.	.	8g|</L	.	8b-|</L	.	2.ryy	2.ryy	1.r	.	1.r	.	2.ryy	2.ryy	4r	.	4r	.
.	.	.	8f|</	.	8a-|</	.	.	.	.	.	.	.	.	.	.	.	.	.
4r	.	.	8e-|</	.	8g|</	.	.	.	.	.	.	.	.	.	4r	.	4r	.
.	.	.	8d-|</J	.	8f|</J	.	.	.	.	.	.	.	.	.	.	.	.	.
8r	.	.	(8.c/L	.	(8.e-/L	.	.	.	.	.	.	.	.	.	8r	.	8r	.
8A-\	.	.	.	.	.	.	.	.	.	.	.	.	.	.	8a-\	.	8cc\	.
.	.	.	32B-/LL	.	32d-/LL	.	.	.	.	.	.	.	.	.	.	.	.	.
.	.	.	32c/JJJ)	.	32e-/JJJ)	.	.	.	.	.	.	.	.	.	.	.	.	.
=89	=89	=89	=89	=89	=89	=89	=89	=89	=89	=89	=89	=89	=89	=89	=89	=89	=89	=89
!LO:TX:t=P:problem=mixed beam	!	!	!	!	!	!	!	!	!	!	!	!	!	!	!	!	!	!
8D-\L	6	.	8d-|</L	.	(16f/LL	.	2.ryy	2.ryy	.	.	.	.	2.ryy	2.ryy	4b-\	.	4dd-\	.
.	.	.	.	.	16b-/)	.	.	.	.	.	.	.	.	.	.	.	.	.
8D-\	.	.	(16f/L	.	(16dd-/	.	.	.	.	.	.	.	.	.	.	.	.	.
.	.	.	16d-/JJ)	.	16b-/JJ)	.	.	.	.	.	.	.	.	.	.	.	.	.
8E-\	4	.	4c/	.	4a-/	.	.	.	.	.	.	.	.	.	4a-\	.	4cc\	.
8E-\	.	.	.	.	.	.	.	.	.	.	.	.	.	.	.	.	.	.
8EE-/	3	.	4B-/	.	4g/	.	.	.	.	.	.	.	.	.	4g\	.	4b-\	.
8EE-/J	.	.	.	.	.	.	.	.	.	.	.	.	.	.	.	.	.	.
=90	=90	=90	=90	=90	=90	=90	=90	=90	=90	=90	=90	=90	=90	=90	=90	=90	=90	=90
4AA-/	.	.	8c/L	.	8a-/L	.	2.ryy	2.ryy	2.r	.	2.r	.	2.ryy	2.ryy	4a-\	.	4cc\	.
.	.	.	8e-/J	.	8cc/J	.	.	.	.	.	.	.	.	.	.	.	.	.
4AA-/	.	.	4c/	.	4a-/	.	.	.	.	.	.	.	.	.	4a-\	.	4cc\	.
4r	.	.	4r	.	4r	.	.	.	.	.	.	.	.	.	4r	.	4r	.
==	==	==	==	==	==	==	==	==	==	==	==	==	==	==	==	==	==	==
*-	*-	*-	*-	*-	*-	*-	*-	*-	*-	*-	*-	*-	*-	*-	*-	*-	*-	*-
!!!system-decoration: [(g1)][(g2)][(g3)][(g4)]<s11>
!!!RDF**kern: < = below
!!!RDF**kern: > = above
!!!RDF**kern: | = vertical stroke
!!!filter-modern: shed -k -e "s/([^a-gA-Gn#X-])[<>]/$1/g" | shed -X dynam -e "s/:a/:A/LX" | shed -e "s/TX(.*):t=P:/tx$1:t=P:/LG" | shed -e "s/:rj/:RJ/L" | sic -sq | modori -m | autostem -r | tie -s | humtr -p | shed -e "s/yy//"
!!!ENC: Andrzej Gręziak
!!!END: 2021-12-01
!!!ENC: Marta Chmielewska
!!!END: 2021-12-15
!!!ENC-modern: Andrzej Kubiczek
!!!END-modern: 2022-07-28
!!!YEC: Copyright 2022 Narodowy Instytut Fryderyka Chopina (https://polishscores.org)
!!!YEM: Licence CC BY 4.0 (https://creativecommons.org/licenses/by/4.0)
